(.../pcb-gcode-3.6.2.4/pcb-gcode.ulp)
(Copyright 2005 - 2012 by John Johnson)
(See readme.txt for licensing terms.)
(This file generated from the board:)
(.../avoccado-nora2-test-jig-panel-50x50.brd)
(Current profile is .../pcb-gcode-3.6.2.4/profiles/emc.pp  )
(This file generated 01.02.2015 18:24:48)
(Settings from pcb-machine.h)
(spindle on time = 3.0000)
(spindle speed = 20000.0000)
(tool change at 0.0000 0.0000 20.0000 )
(feed rate xy = F0.00  )
(feed rate z  = F508.00 )
(Z Axis Settings)
(  High     Up        Down     Drill)
(1.5000 	0.7000 	-0.1100 	-1.6500 )
(Settings from pcb-defaults.h)
(isolate min = 0.0200)
(isolate max = 0.3000)
(isolate step = 0.1700)
(Generated top outlines, top drill, )
(Unit of measure: mm)
( Tool|       Size       |  Min Sub |  Max Sub |   Count )
( T01 | 1.016mm 0.0400in | 0.0000in | 0.0000in |       0 )
( T02 | 1.118mm 0.0440in | 0.0000in | 0.0000in |       0 )
( T03 | 3.000mm 0.1181in | 0.0000in | 0.0000in |       0 )
(Metric Mode)
G21
(Absolute Coordinates)
G90
S20000
G00 Z1.5000 
G00 X0.0000 Y0.0000 
M03
G04 P3.000000
M05
G00 Z20.0000 
M06 T01 (1.0160 )
G01 Z0.0000 F508.00 
M06 
G00 Z0.7000 
M03
G04 P3.000000
G82 X2.0320 Y8.6360 Z-1.6500 F508.00 R0.7000 P1.000000
G82 X4.5720 Y8.6360 
G82 X7.1120 Y8.6360 
G82 X9.6520 Y8.6360 
G82 X12.1920 Y8.6360 
G82 X14.7320 Y8.6360 
G82 X17.2720 Y8.6360 
G82 X19.8120 Y8.6360 
G82 X14.7320 Y5.8420 
G82 X12.1920 Y5.8420 
G82 X12.1920 Y3.3020 
G82 X14.7320 Y3.3020 
G82 X9.6520 Y3.3020 
G82 X7.1120 Y3.3020 
G82 X7.1120 Y5.8420 
G82 X9.6520 Y5.8420 
G82 X4.5720 Y5.8420 
G82 X4.5720 Y3.3020 
G82 X9.9060 Y22.3600 
G82 X12.4460 Y22.3600 
G82 X14.9860 Y22.3600 
G82 X17.5260 Y22.3600 
G82 X14.7320 Y28.3020 
G82 X14.7320 Y30.8420 
G82 X12.1920 Y30.8420 
G82 X12.1920 Y28.3020 
G82 X9.6520 Y28.3020 
G82 X7.1120 Y28.3020 
G82 X7.1120 Y30.8420 
G82 X9.6520 Y30.8420 
G82 X9.6520 Y33.6360 
G82 X7.1120 Y33.6360 
G82 X4.5720 Y33.6360 
G82 X2.0320 Y33.6360 
G82 X4.5720 Y30.8420 
G82 X4.5720 Y28.3020 
G82 X12.1920 Y33.6360 
G82 X14.7320 Y33.6360 
G82 X17.2720 Y33.6360 
G82 X19.8120 Y33.6360 
G82 X27.0320 Y33.6360 
G82 X29.5720 Y33.6360 
G82 X32.1120 Y33.6360 
G82 X34.6520 Y33.6360 
G82 X37.1920 Y33.6360 
G82 X39.7320 Y33.6360 
G82 X42.2720 Y33.6360 
G82 X44.8120 Y33.6360 
G82 X39.7320 Y30.8420 
G82 X37.1920 Y30.8420 
G82 X34.6520 Y30.8420 
G82 X32.1120 Y30.8420 
G82 X32.1120 Y28.3020 
G82 X34.6520 Y28.3020 
G82 X37.1920 Y28.3020 
G82 X39.7320 Y28.3020 
G82 X39.9860 Y22.3600 
G82 X37.4460 Y22.3600 
G82 X34.9060 Y22.3600 
G82 X42.5260 Y22.3600 
G82 X42.2720 Y8.6360 
G82 X39.7320 Y8.6360 
G82 X37.1920 Y8.6360 
G82 X34.6520 Y8.6360 
G82 X32.1120 Y8.6360 
G82 X29.5720 Y8.6360 
G82 X27.0320 Y8.6360 
G82 X29.5720 Y5.8420 
G82 X29.5720 Y3.3020 
G82 X32.1120 Y3.3020 
G82 X34.6520 Y3.3020 
G82 X37.1920 Y3.3020 
G82 X39.7320 Y3.3020 
G82 X39.7320 Y5.8420 
G82 X37.1920 Y5.8420 
G82 X34.6520 Y5.8420 
G82 X32.1120 Y5.8420 
G82 X44.8120 Y8.6360 
G82 X29.5720 Y28.3020 
G82 X29.5720 Y30.8420 
G82 X34.9060 Y47.3600 
G82 X37.4460 Y47.3600 
G82 X39.9860 Y47.3600 
G82 X42.5260 Y47.3600 
G82 X17.5260 Y47.3600 
G82 X14.9860 Y47.3600 
G82 X12.4460 Y47.3600 
G82 X9.9060 Y47.3600 
M05
G00 Z20.0000 
G00 X0.0000 Y0.0000 
M06 T02 (1.1176 )
G01 Z0.0000 F508.00 
M06 
G00 Z0.7000 
M03
G04 P3.000000
G82 X7.1040 Y16.2560 Z-1.6500 F508.00 R0.7000 P1.000000
G82 X7.1200 Y18.7960 
G82 X7.1040 Y21.3360 
G82 X7.1120 Y13.7080 
G82 X22.8600 Y13.7160 
G82 X22.8600 Y11.1760 
G82 X22.8600 Y8.6360 
G82 X22.8600 Y6.0960 
G82 X22.8600 Y3.5560 
G82 X17.7800 Y1.0160 
G82 X22.8600 Y16.2560 
G82 X22.8600 Y18.7960 
G82 X17.7800 Y26.0160 
G82 X22.8600 Y28.5560 
G82 X22.8600 Y31.0960 
G82 X22.8600 Y33.6360 
G82 X22.8600 Y36.1760 
G82 X22.8600 Y38.7160 
G82 X22.8600 Y41.2560 
G82 X22.8600 Y43.7960 
G82 X32.1200 Y43.7960 
G82 X32.1040 Y46.3360 
G82 X32.1040 Y41.2560 
G82 X32.1120 Y38.7080 
G82 X47.8600 Y38.7160 
G82 X47.8600 Y36.1760 
G82 X47.8600 Y33.6360 
G82 X47.8600 Y31.0960 
G82 X47.8600 Y28.5560 
G82 X42.7800 Y26.0160 
G82 X47.8600 Y18.7960 
G82 X47.8600 Y16.2560 
G82 X47.8600 Y13.7160 
G82 X47.8600 Y11.1760 
G82 X47.8600 Y8.6360 
G82 X47.8600 Y6.0960 
G82 X47.8600 Y3.5560 
G82 X42.7800 Y1.0160 
G82 X32.1120 Y13.7080 
G82 X32.1040 Y16.2560 
G82 X32.1200 Y18.7960 
G82 X32.1040 Y21.3360 
G82 X47.8600 Y41.2560 
G82 X47.8600 Y43.7960 
G82 X7.1200 Y43.7960 
G82 X7.1040 Y46.3360 
G82 X7.1040 Y41.2560 
G82 X7.1120 Y38.7080 
M05
G00 Z20.0000 
G00 X0.0000 Y0.0000 
M06 T03 (3.0000 )
G01 Z0.0000 F508.00 
M06 
G00 Z0.7000 
M03
G04 P3.000000
G82 X0.0000 Y0.0000 Z-1.6500 F508.00 R0.7000 P1.000000
G82 X0.0000 Y25.0000 
G82 X0.0000 Y50.0000 
G82 X25.0000 Y50.0000 
G82 X25.0000 Y25.0000 
G82 X25.0000 Y0.0000 
G82 X50.0000 Y0.0000 
G82 X50.0000 Y25.0000 
G82 X50.0000 Y50.0000 
T01 
G00 Z1.5000 
M05
M02
