(.../pcb-gcode-3.6.2.4/pcb-gcode.ulp)
(Copyright 2005 - 2012 by John Johnson)
(See readme.txt for licensing terms.)
(This file generated from the board:)
(.../avoccado-nora2-test-jig-panel-50x50.brd)
(Current profile is .../pcb-gcode-3.6.2.4/profiles/emc.pp  )
(This file generated 01.02.2015 18:23:45)
(Settings from pcb-machine.h)
(spindle on time = 3.0000)
(  Tool Size)
(0.1800 )
(spindle speed = 30000.0000)
(tool change at 0.0000 0.0000 20.0000 )
(feed rate xy = F508.00 )
(feed rate z  = F254.00 )
(Z Axis Settings)
(  High     Up        Down     Drill)
(1.5000 	0.7000 	-0.1100 	-1.6500 )
(Settings from pcb-defaults.h)
(isolate min = 0.0200)
(isolate max = 0.3000)
(isolate step = 0.1700)
(Generated top outlines, top drill, )
(Unit of measure: mm)
(Metric Mode)
G21
(Absolute Coordinates)
G90
S30000
G00 Z1.5000 
G00 X0.0000 Y0.0000 
M03
G04 P3.000000
G00 Z0.7000 
G00 X3.1579 Y0.9282 
G01 Z-0.1100 F254.00 
G01 X0.9282 Y3.1579 F508.00 
G01 X0.8212 Y3.4162 
G01 X0.8212 Y5.1604 
G01 X0.7999 Y5.2400 
G01 X0.7586 Y5.3115 
G01 X0.7003 Y5.3698 
G01 X0.4202 Y5.6499 
G01 X0.3132 Y5.9082 
G01 X0.3132 Y9.2838 
G01 X0.4202 Y9.5421 
G01 X0.9618 Y10.0837 
G01 X1.0031 Y10.1551 
G01 X1.0244 Y10.2348 
G01 X1.0244 Y11.2824 
G01 X1.0031 Y11.3621 
G01 X0.9618 Y11.4335 
G01 X0.9035 Y11.4918 
G01 X0.8321 Y11.5331 
G01 X0.7524 Y11.5544 
G01 X-0.0134 Y11.5544 
G01 X-0.1970 Y11.6305 
G01 X-0.3375 Y11.7710 
G01 X-0.4136 Y11.9546 
G01 X-0.4136 Y13.9534 
G01 X-0.3375 Y14.1370 
G01 X-0.1970 Y14.2775 
G01 X-0.0134 Y14.3536 
G01 X0.1936 Y14.3536 
G01 X0.2733 Y14.3749 
G01 X0.3447 Y14.4162 
G01 X0.4030 Y14.4745 
G01 X0.4443 Y14.5459 
G01 X0.4656 Y14.6256 
G01 X0.4656 Y18.7020 
G01 X0.5881 Y18.9977 
G01 X0.7664 Y19.1760 
G01 X0.7798 Y19.1857 
G01 X0.7954 Y19.2050 
G01 X0.8129 Y19.2225 
G01 X0.8212 Y19.2369 
G01 X2.8056 Y21.6875 
G01 X2.8315 Y21.7194 
G01 X2.8548 Y21.7483 
G01 X2.8591 Y21.7554 
G01 X2.8733 Y21.7897 
G01 X2.9284 Y21.8459 
G01 X2.9418 Y21.8557 
G01 X2.9574 Y21.8750 
G01 X2.9749 Y21.8925 
G01 X2.9832 Y21.9069 
G01 X3.0314 Y21.9664 
G01 X3.0660 Y21.9853 
G01 X3.0726 Y21.9902 
G01 X3.0988 Y22.0164 
G01 X3.1713 Y22.0473 
G01 X3.1874 Y22.0512 
G01 X3.2092 Y22.0630 
G01 X3.2321 Y22.0725 
G01 X3.2453 Y22.0826 
G01 X3.3126 Y22.1192 
G01 X3.3518 Y22.1234 
G01 X3.3598 Y22.1254 
G01 X3.3941 Y22.1396 
G01 X3.4728 Y22.1404 
G01 X3.4891 Y22.1378 
G01 X3.5138 Y22.1404 
G01 X3.5386 Y22.1404 
G01 X3.5547 Y22.1447 
G01 X3.6309 Y22.1527 
G01 X3.6686 Y22.1416 
G01 X3.6768 Y22.1404 
G01 X3.7139 Y22.1404 
G01 X3.7511 Y22.1394 
G01 X3.9047 Y22.1404 
G01 X3.9843 Y22.1617 
G01 X4.0558 Y22.2030 
G01 X4.1141 Y22.2613 
G01 X4.4090 Y22.5563 
G01 X4.9381 Y22.7754 
G01 X7.3903 Y22.7754 
G01 X7.9193 Y22.5563 
G01 X8.1389 Y22.3367 
G01 X8.2103 Y22.2955 
G01 X8.2900 Y22.2741 
G01 X8.3724 Y22.2741 
G01 X8.4521 Y22.2955 
G01 X8.4777 Y22.3102 
G01 X8.5235 Y22.3367 
G01 X8.5818 Y22.3950 
G01 X8.6231 Y22.4664 
G01 X8.6444 Y22.5461 
G01 X8.6444 Y22.6109 
G01 X8.8365 Y23.0746 
G01 X9.1914 Y23.4295 
G01 X9.6550 Y23.6216 
G01 X10.1570 Y23.6216 
G01 X10.6206 Y23.4295 
G01 X10.9254 Y23.1248 
G01 X10.9837 Y23.0665 
G01 X11.0284 Y23.0407 
G01 X11.0551 Y23.0252 
G01 X11.1348 Y23.0039 
G01 X11.2172 Y23.0039 
G01 X11.2969 Y23.0252 
G01 X11.3683 Y23.0665 
G01 X11.7314 Y23.4295 
G01 X12.1950 Y23.6216 
G01 X12.6969 Y23.6216 
G01 X13.1606 Y23.4295 
G01 X13.4654 Y23.1248 
G01 X13.5237 Y23.0665 
G01 X13.5684 Y23.0407 
G01 X13.5951 Y23.0252 
G01 X13.6748 Y23.0039 
G01 X13.7572 Y23.0039 
G01 X13.8369 Y23.0252 
G01 X13.9083 Y23.0665 
G01 X14.2714 Y23.4295 
G01 X14.7350 Y23.6216 
G01 X15.2369 Y23.6216 
G01 X15.7006 Y23.4295 
G01 X16.0054 Y23.1248 
G01 X16.0637 Y23.0665 
G01 X16.1084 Y23.0407 
G01 X16.1351 Y23.0252 
G01 X16.2148 Y23.0039 
G01 X16.2972 Y23.0039 
G01 X16.3769 Y23.0252 
G01 X16.4483 Y23.0665 
G01 X16.8114 Y23.4295 
G01 X17.2750 Y23.6216 
G01 X17.7769 Y23.6216 
G01 X18.2406 Y23.4295 
G01 X18.5955 Y23.0746 
G01 X18.7876 Y22.6109 
G01 X18.7876 Y22.1090 
G01 X18.5955 Y21.6454 
G01 X18.2406 Y21.2905 
G01 X17.7769 Y21.0984 
G01 X17.3468 Y21.0984 
G01 X17.2671 Y21.0771 
G01 X17.1957 Y21.0358 
G01 X17.1374 Y20.9775 
G01 X14.9894 Y18.8295 
G01 X14.9481 Y18.7580 
G01 X14.9268 Y18.6784 
G01 X14.9268 Y16.1162 
G01 X14.8198 Y15.8579 
G01 X14.2194 Y15.2575 
G01 X14.1782 Y15.1861 
G01 X14.1568 Y15.1064 
G01 X14.1568 Y15.0240 
G01 X14.1782 Y14.9443 
G01 X14.1929 Y14.9187 
G01 X14.2194 Y14.8729 
G01 X14.2450 Y14.8473 
G01 X14.2450 Y14.8110 
G01 X14.2185 Y14.7651 
G01 X14.2058 Y14.7180 
G01 X14.0831 Y14.7180 
G01 X14.0427 Y14.7012 
G01 X14.0117 Y14.6703 
G01 X13.9950 Y14.6299 
G01 X13.9950 Y13.4861 
G01 X14.0117 Y13.4457 
G01 X14.0427 Y13.4147 
G01 X14.0831 Y13.3980 
G01 X15.1269 Y13.3980 
G01 X15.1673 Y13.4147 
G01 X15.1982 Y13.4457 
G01 X15.2150 Y13.4861 
G01 X15.2150 Y14.6284 
G01 X15.2428 Y14.6562 
G01 X15.2491 Y14.6410 
G01 X15.2617 Y14.6246 
G01 X15.2720 Y14.6067 
G01 X15.2867 Y14.5920 
G01 X15.2993 Y14.5756 
G01 X15.3157 Y14.5630 
G01 X15.3303 Y14.5484 
G01 X15.3483 Y14.5380 
G01 X15.3647 Y14.5254 
G01 X15.3838 Y14.5175 
G01 X15.4018 Y14.5071 
G01 X15.4218 Y14.5018 
G01 X15.4409 Y14.4939 
G01 X15.4614 Y14.4912 
G01 X15.4814 Y14.4858 
G01 X15.5021 Y14.4858 
G01 X15.5227 Y14.4831 
G01 X15.5432 Y14.4858 
G01 X15.5639 Y14.4858 
G01 X15.5839 Y14.4912 
G01 X15.6044 Y14.4939 
G01 X15.6235 Y14.5018 
G01 X15.6435 Y14.5071 
G01 X15.6615 Y14.5175 
G01 X15.6806 Y14.5254 
G01 X15.6970 Y14.5380 
G01 X15.7150 Y14.5484 
G01 X15.7296 Y14.5630 
G01 X15.7460 Y14.5756 
G01 X15.7586 Y14.5920 
G01 X15.7733 Y14.6067 
G01 X15.7836 Y14.6246 
G01 X15.7962 Y14.6411 
G01 X15.8041 Y14.6602 
G01 X15.8145 Y14.6781 
G01 X15.8199 Y14.6981 
G01 X15.8633 Y14.8030 
G01 X16.0460 Y14.9857 
G01 X16.2848 Y15.0846 
G01 X17.2432 Y15.0846 
G01 X17.4915 Y14.9818 
G01 X17.5497 Y14.9481 
G01 X17.6294 Y14.9268 
G01 X17.9084 Y14.9268 
G01 X17.9880 Y14.9481 
G01 X18.0595 Y14.9894 
G01 X18.1178 Y15.0477 
G01 X19.4784 Y16.4083 
G01 X19.4980 Y16.4423 
G01 X19.5035 Y16.4517 
G01 X19.5197 Y16.4797 
G01 X19.5280 Y16.5110 
G01 X19.7601 Y17.0713 
G01 X20.1605 Y17.4717 
G01 X20.1769 Y17.4812 
G01 X20.1960 Y17.4891 
G01 X20.2125 Y17.5017 
G01 X20.2304 Y17.5120 
G01 X20.2450 Y17.5267 
G01 X20.2614 Y17.5393 
G01 X20.2741 Y17.5557 
G01 X20.2887 Y17.5704 
G01 X20.2990 Y17.5883 
G01 X20.3116 Y17.6047 
G01 X20.3196 Y17.6238 
G01 X20.3299 Y17.6418 
G01 X20.3353 Y17.6618 
G01 X20.3432 Y17.6809 
G01 X20.3459 Y17.7014 
G01 X20.3513 Y17.7214 
G01 X20.3513 Y17.7421 
G01 X20.3540 Y17.7627 
G01 X20.3513 Y17.7832 
G01 X20.3513 Y17.8039 
G01 X20.3459 Y17.8239 
G01 X20.3432 Y17.8444 
G01 X20.3353 Y17.8635 
G01 X20.3299 Y17.8836 
G01 X20.3196 Y17.9015 
G01 X20.3117 Y17.9206 
G01 X20.2990 Y17.9370 
G01 X20.2887 Y17.9550 
G01 X20.2741 Y17.9696 
G01 X20.2615 Y17.9860 
G01 X20.2450 Y17.9987 
G01 X20.1537 Y18.0899 
G01 X20.0535 Y18.2280 
G01 X19.9760 Y18.3800 
G01 X20.0135 Y18.3812 
G01 X20.0825 Y18.2458 
G01 X20.1797 Y18.1121 
G01 X20.2965 Y17.9953 
G01 X20.4302 Y17.8981 
G01 X20.5774 Y17.8231 
G01 X20.7346 Y17.7721 
G01 X20.8978 Y17.7462 
G01 X22.9426 Y17.7462 
G01 X23.1058 Y17.7721 
G01 X23.2630 Y17.8231 
G01 X23.4102 Y17.8981 
G01 X23.5439 Y17.9953 
G01 X23.6607 Y18.1121 
G01 X23.7579 Y18.2458 
G01 X23.8269 Y18.3812 
G01 X23.8648 Y18.3812 
G01 X23.7869 Y18.2280 
G01 X23.6867 Y18.0899 
G01 X23.5954 Y17.9987 
G01 X23.5789 Y17.9860 
G01 X23.5663 Y17.9696 
G01 X23.5517 Y17.9550 
G01 X23.5414 Y17.9370 
G01 X23.5287 Y17.9206 
G01 X23.5208 Y17.9015 
G01 X23.5105 Y17.8836 
G01 X23.5051 Y17.8635 
G01 X23.4972 Y17.8444 
G01 X23.4945 Y17.8239 
G01 X23.4891 Y17.8039 
G01 X23.4891 Y17.7832 
G01 X23.4864 Y17.7627 
G01 X23.4891 Y17.7421 
G01 X23.4891 Y17.7214 
G01 X23.4945 Y17.7014 
G01 X23.4972 Y17.6809 
G01 X23.5051 Y17.6618 
G01 X23.5105 Y17.6418 
G01 X23.5208 Y17.6238 
G01 X23.5288 Y17.6047 
G01 X23.5414 Y17.5883 
G01 X23.5517 Y17.5704 
G01 X23.5663 Y17.5557 
G01 X23.5790 Y17.5393 
G01 X23.5954 Y17.5267 
G01 X23.6100 Y17.5120 
G01 X23.6279 Y17.5017 
G01 X23.6444 Y17.4891 
G01 X23.6635 Y17.4812 
G01 X23.6799 Y17.4717 
G01 X24.0803 Y17.0714 
G01 X24.2994 Y16.5423 
G01 X24.2994 Y15.9697 
G01 X24.0803 Y15.4406 
G01 X23.8762 Y15.2366 
G01 X23.8179 Y15.1783 
G01 X23.7921 Y15.1336 
G01 X23.7767 Y15.1069 
G01 X23.7553 Y15.0272 
G01 X23.7553 Y14.9448 
G01 X23.7767 Y14.8651 
G01 X23.8179 Y14.7937 
G01 X24.0803 Y14.5313 
G01 X24.1791 Y14.2928 
G01 X24.1844 Y14.2728 
G01 X24.1948 Y14.2549 
G01 X24.2027 Y14.2358 
G01 X24.2153 Y14.2194 
G01 X24.2256 Y14.2014 
G01 X24.2403 Y14.1868 
G01 X24.2529 Y14.1704 
G01 X24.2693 Y14.1578 
G01 X24.2840 Y14.1431 
G01 X24.3019 Y14.1328 
G01 X24.3183 Y14.1202 
G01 X24.3374 Y14.1122 
G01 X24.3554 Y14.1019 
G01 X24.3754 Y14.0965 
G01 X24.3945 Y14.0886 
G01 X24.4150 Y14.0859 
G01 X24.4350 Y14.0805 
G01 X24.4557 Y14.0805 
G01 X24.4763 Y14.0778 
G01 X24.4968 Y14.0805 
G01 X24.5175 Y14.0805 
G01 X24.5375 Y14.0859 
G01 X24.5580 Y14.0886 
G01 X24.5771 Y14.0965 
G01 X24.5972 Y14.1019 
G01 X24.6151 Y14.1122 
G01 X24.6342 Y14.1202 
G01 X24.6506 Y14.1328 
G01 X24.6686 Y14.1431 
G01 X24.6832 Y14.1578 
G01 X24.6996 Y14.1704 
G01 X24.7122 Y14.1868 
G01 X24.8030 Y14.2775 
G01 X24.9866 Y14.3536 
G01 X25.1936 Y14.3536 
G01 X25.2733 Y14.3749 
G01 X25.3447 Y14.4162 
G01 X25.4030 Y14.4745 
G01 X25.4443 Y14.5459 
G01 X25.4656 Y14.6256 
G01 X25.4656 Y18.7020 
G01 X25.5881 Y18.9977 
G01 X25.7664 Y19.1760 
G01 X25.7798 Y19.1857 
G01 X25.7954 Y19.2050 
G01 X25.8129 Y19.2225 
G01 X25.8212 Y19.2369 
G01 X27.8056 Y21.6875 
G01 X27.8315 Y21.7195 
G01 X27.8548 Y21.7483 
G01 X27.8591 Y21.7554 
G01 X27.8732 Y21.7897 
G01 X27.9283 Y21.8459 
G01 X27.9418 Y21.8557 
G01 X27.9574 Y21.8750 
G01 X27.9749 Y21.8925 
G01 X27.9832 Y21.9069 
G01 X28.0314 Y21.9664 
G01 X28.0660 Y21.9853 
G01 X28.0726 Y21.9902 
G01 X28.0988 Y22.0164 
G01 X28.1713 Y22.0473 
G01 X28.1874 Y22.0512 
G01 X28.2092 Y22.0630 
G01 X28.2321 Y22.0725 
G01 X28.2453 Y22.0826 
G01 X28.3126 Y22.1192 
G01 X28.3517 Y22.1234 
G01 X28.3598 Y22.1254 
G01 X28.3941 Y22.1396 
G01 X28.4728 Y22.1404 
G01 X28.4891 Y22.1378 
G01 X28.5138 Y22.1404 
G01 X28.5386 Y22.1404 
G01 X28.5547 Y22.1447 
G01 X28.6309 Y22.1527 
G01 X28.6686 Y22.1416 
G01 X28.6768 Y22.1404 
G01 X28.7140 Y22.1404 
G01 X28.7510 Y22.1394 
G01 X28.9047 Y22.1404 
G01 X28.9843 Y22.1617 
G01 X29.0558 Y22.2030 
G01 X29.1141 Y22.2613 
G01 X29.4090 Y22.5563 
G01 X29.9381 Y22.7754 
G01 X32.3903 Y22.7754 
G01 X32.9193 Y22.5563 
G01 X33.1389 Y22.3367 
G01 X33.2103 Y22.2955 
G01 X33.2900 Y22.2741 
G01 X33.3724 Y22.2741 
G01 X33.4521 Y22.2955 
G01 X33.4777 Y22.3102 
G01 X33.5235 Y22.3367 
G01 X33.5818 Y22.3950 
G01 X33.6231 Y22.4664 
G01 X33.6444 Y22.5461 
G01 X33.6444 Y22.6109 
G01 X33.8365 Y23.0746 
G01 X34.1914 Y23.4295 
G01 X34.6550 Y23.6216 
G01 X35.1570 Y23.6216 
G01 X35.6206 Y23.4295 
G01 X35.9254 Y23.1248 
G01 X35.9837 Y23.0665 
G01 X36.0284 Y23.0407 
G01 X36.0551 Y23.0252 
G01 X36.1348 Y23.0039 
G01 X36.2172 Y23.0039 
G01 X36.2969 Y23.0252 
G01 X36.3683 Y23.0665 
G01 X36.7314 Y23.4295 
G01 X37.1950 Y23.6216 
G01 X37.6970 Y23.6216 
G01 X38.1606 Y23.4295 
G01 X38.4654 Y23.1248 
G01 X38.5237 Y23.0665 
G01 X38.5684 Y23.0407 
G01 X38.5951 Y23.0252 
G01 X38.6748 Y23.0039 
G01 X38.7572 Y23.0039 
G01 X38.8369 Y23.0252 
G01 X38.9083 Y23.0665 
G01 X39.2714 Y23.4295 
G01 X39.7350 Y23.6216 
G01 X40.2370 Y23.6216 
G01 X40.7006 Y23.4295 
G01 X41.0054 Y23.1248 
G01 X41.0637 Y23.0665 
G01 X41.1084 Y23.0407 
G01 X41.1351 Y23.0252 
G01 X41.2148 Y23.0039 
G01 X41.2972 Y23.0039 
G01 X41.3769 Y23.0252 
G01 X41.4483 Y23.0665 
G01 X41.8114 Y23.4295 
G01 X42.2750 Y23.6216 
G01 X42.7769 Y23.6216 
G01 X43.2406 Y23.4295 
G01 X43.5955 Y23.0746 
G01 X43.7876 Y22.6109 
G01 X43.7876 Y22.1090 
G01 X43.5955 Y21.6454 
G01 X43.2406 Y21.2905 
G01 X42.7769 Y21.0984 
G01 X42.3468 Y21.0984 
G01 X42.2671 Y21.0771 
G01 X42.1957 Y21.0358 
G01 X42.1374 Y20.9775 
G01 X40.0477 Y18.8878 
G01 X39.9894 Y18.8295 
G01 X39.9481 Y18.7580 
G01 X39.9268 Y18.6784 
G01 X39.9268 Y16.1162 
G01 X39.8198 Y15.8579 
G01 X39.2194 Y15.2575 
G01 X39.1782 Y15.1861 
G01 X39.1568 Y15.1064 
G01 X39.1568 Y15.0240 
G01 X39.1782 Y14.9443 
G01 X39.1929 Y14.9187 
G01 X39.2194 Y14.8729 
G01 X39.2450 Y14.8473 
G01 X39.2450 Y14.8110 
G01 X39.2185 Y14.7651 
G01 X39.2058 Y14.7180 
G01 X39.0831 Y14.7180 
G01 X39.0427 Y14.7012 
G01 X39.0117 Y14.6703 
G01 X38.9950 Y14.6299 
G01 X38.9950 Y13.4861 
G01 X39.0117 Y13.4457 
G01 X39.0427 Y13.4147 
G01 X39.0831 Y13.3980 
G01 X40.1269 Y13.3980 
G01 X40.1673 Y13.4147 
G01 X40.1983 Y13.4457 
G01 X40.2150 Y13.4861 
G01 X40.2150 Y14.6284 
G01 X40.2428 Y14.6562 
G01 X40.2491 Y14.6410 
G01 X40.2617 Y14.6246 
G01 X40.2720 Y14.6067 
G01 X40.2867 Y14.5920 
G01 X40.2993 Y14.5756 
G01 X40.3157 Y14.5630 
G01 X40.3303 Y14.5484 
G01 X40.3483 Y14.5380 
G01 X40.3647 Y14.5254 
G01 X40.3838 Y14.5175 
G01 X40.4018 Y14.5071 
G01 X40.4218 Y14.5018 
G01 X40.4409 Y14.4939 
G01 X40.4614 Y14.4912 
G01 X40.4814 Y14.4858 
G01 X40.5021 Y14.4858 
G01 X40.5227 Y14.4831 
G01 X40.5432 Y14.4858 
G01 X40.5639 Y14.4858 
G01 X40.5839 Y14.4912 
G01 X40.6044 Y14.4939 
G01 X40.6235 Y14.5018 
G01 X40.6435 Y14.5071 
G01 X40.6615 Y14.5175 
G01 X40.6806 Y14.5254 
G01 X40.6970 Y14.5380 
G01 X40.7150 Y14.5484 
G01 X40.7296 Y14.5630 
G01 X40.7460 Y14.5756 
G01 X40.7586 Y14.5920 
G01 X40.7733 Y14.6067 
G01 X40.7836 Y14.6246 
G01 X40.7962 Y14.6411 
G01 X40.8041 Y14.6602 
G01 X40.8145 Y14.6781 
G01 X40.8199 Y14.6981 
G01 X40.8633 Y14.8030 
G01 X41.0460 Y14.9857 
G01 X41.2848 Y15.0846 
G01 X42.2432 Y15.0846 
G01 X42.4915 Y14.9818 
G01 X42.4994 Y14.9772 
G01 X42.5497 Y14.9482 
G01 X42.5864 Y14.9383 
G01 X42.6293 Y14.9268 
G01 X42.6703 Y14.9268 
G01 X42.7118 Y14.9268 
G01 X42.9084 Y14.9268 
G01 X42.9880 Y14.9481 
G01 X43.0595 Y14.9894 
G01 X43.1178 Y15.0477 
G01 X44.4784 Y16.4083 
G01 X44.4980 Y16.4423 
G01 X44.5035 Y16.4517 
G01 X44.5197 Y16.4797 
G01 X44.5280 Y16.5110 
G01 X44.7601 Y17.0714 
G01 X45.1605 Y17.4717 
G01 X45.1769 Y17.4812 
G01 X45.1960 Y17.4891 
G01 X45.2124 Y17.5017 
G01 X45.2304 Y17.5120 
G01 X45.2450 Y17.5267 
G01 X45.2614 Y17.5393 
G01 X45.2741 Y17.5557 
G01 X45.2887 Y17.5704 
G01 X45.2990 Y17.5883 
G01 X45.3116 Y17.6047 
G01 X45.3196 Y17.6238 
G01 X45.3299 Y17.6418 
G01 X45.3353 Y17.6618 
G01 X45.3432 Y17.6809 
G01 X45.3459 Y17.7014 
G01 X45.3513 Y17.7214 
G01 X45.3513 Y17.7421 
G01 X45.3540 Y17.7627 
G01 X45.3513 Y17.7832 
G01 X45.3513 Y17.8039 
G01 X45.3459 Y17.8239 
G01 X45.3432 Y17.8444 
G01 X45.3353 Y17.8635 
G01 X45.3299 Y17.8836 
G01 X45.3196 Y17.9015 
G01 X45.3117 Y17.9206 
G01 X45.2990 Y17.9370 
G01 X45.2887 Y17.9550 
G01 X45.2741 Y17.9696 
G01 X45.2615 Y17.9860 
G01 X45.2450 Y17.9987 
G01 X45.1537 Y18.0899 
G01 X45.0534 Y18.2280 
G01 X44.9760 Y18.3800 
G01 X45.0135 Y18.3812 
G01 X45.0825 Y18.2458 
G01 X45.1797 Y18.1121 
G01 X45.2965 Y17.9953 
G01 X45.4302 Y17.8981 
G01 X45.5774 Y17.8231 
G01 X45.7346 Y17.7721 
G01 X45.8978 Y17.7462 
G01 X47.9426 Y17.7462 
G01 X48.1058 Y17.7721 
G01 X48.2630 Y17.8231 
G01 X48.4102 Y17.8981 
G01 X48.5439 Y17.9953 
G01 X48.6607 Y18.1121 
G01 X48.7579 Y18.2458 
G01 X48.8269 Y18.3812 
G01 X48.8648 Y18.3812 
G01 X48.7869 Y18.2280 
G01 X48.6867 Y18.0899 
G01 X48.5954 Y17.9987 
G01 X48.5789 Y17.9860 
G01 X48.5663 Y17.9696 
G01 X48.5517 Y17.9550 
G01 X48.5414 Y17.9370 
G01 X48.5287 Y17.9206 
G01 X48.5208 Y17.9015 
G01 X48.5105 Y17.8836 
G01 X48.5051 Y17.8635 
G01 X48.4972 Y17.8444 
G01 X48.4945 Y17.8239 
G01 X48.4891 Y17.8039 
G01 X48.4891 Y17.7832 
G01 X48.4864 Y17.7627 
G01 X48.4891 Y17.7421 
G01 X48.4891 Y17.7214 
G01 X48.4945 Y17.7014 
G01 X48.4972 Y17.6809 
G01 X48.5051 Y17.6618 
G01 X48.5105 Y17.6418 
G01 X48.5208 Y17.6238 
G01 X48.5288 Y17.6047 
G01 X48.5414 Y17.5883 
G01 X48.5517 Y17.5704 
G01 X48.5663 Y17.5557 
G01 X48.5790 Y17.5393 
G01 X48.5954 Y17.5267 
G01 X48.6100 Y17.5120 
G01 X48.6279 Y17.5017 
G01 X48.6444 Y17.4891 
G01 X48.6635 Y17.4812 
G01 X48.6799 Y17.4717 
G01 X49.0803 Y17.0714 
G01 X49.2994 Y16.5423 
G01 X49.2994 Y15.9697 
G01 X49.0803 Y15.4406 
G01 X48.8762 Y15.2366 
G01 X48.8179 Y15.1783 
G01 X48.7921 Y15.1336 
G01 X48.7767 Y15.1069 
G01 X48.7553 Y15.0272 
G01 X48.7553 Y14.9448 
G01 X48.7767 Y14.8651 
G01 X48.8179 Y14.7937 
G01 X49.0803 Y14.5313 
G01 X49.2994 Y14.0023 
G01 X49.2994 Y13.4297 
G01 X49.0803 Y12.9006 
G01 X48.8179 Y12.6383 
G01 X48.7767 Y12.5669 
G01 X48.7553 Y12.4872 
G01 X48.7553 Y12.4048 
G01 X48.7767 Y12.3251 
G01 X48.7915 Y12.2995 
G01 X48.8179 Y12.2537 
G01 X48.8762 Y12.1954 
G01 X49.0803 Y11.9914 
G01 X49.2994 Y11.4623 
G01 X49.2994 Y10.8897 
G01 X49.0803 Y10.3606 
G01 X48.8179 Y10.0983 
G01 X48.7767 Y10.0269 
G01 X48.7553 Y9.9472 
G01 X48.7553 Y9.8648 
G01 X48.7767 Y9.7851 
G01 X48.7915 Y9.7595 
G01 X48.8179 Y9.7137 
G01 X48.8762 Y9.6554 
G01 X49.0803 Y9.4514 
G01 X49.2994 Y8.9223 
G01 X49.2994 Y8.3497 
G01 X49.0803 Y7.8206 
G01 X48.8179 Y7.5583 
G01 X48.7767 Y7.4869 
G01 X48.7553 Y7.4072 
G01 X48.7553 Y7.3248 
G01 X48.7767 Y7.2451 
G01 X48.7915 Y7.2195 
G01 X48.8179 Y7.1737 
G01 X48.8762 Y7.1154 
G01 X49.0803 Y6.9114 
G01 X49.2994 Y6.3823 
G01 X49.2994 Y5.8097 
G01 X49.0803 Y5.2806 
G01 X48.6799 Y4.8803 
G01 X48.6635 Y4.8708 
G01 X48.6444 Y4.8629 
G01 X48.6279 Y4.8503 
G01 X48.6100 Y4.8399 
G01 X48.5954 Y4.8253 
G01 X48.5790 Y4.8127 
G01 X48.5663 Y4.7963 
G01 X48.5517 Y4.7816 
G01 X48.5414 Y4.7637 
G01 X48.5288 Y4.7473 
G01 X48.5208 Y4.7281 
G01 X48.5105 Y4.7102 
G01 X48.5051 Y4.6902 
G01 X48.4972 Y4.6711 
G01 X48.4945 Y4.6505 
G01 X48.4891 Y4.6306 
G01 X48.4891 Y4.6099 
G01 X48.4864 Y4.5893 
G01 X48.4891 Y4.5688 
G01 X48.4891 Y4.5481 
G01 X48.4945 Y4.5281 
G01 X48.4972 Y4.5076 
G01 X48.5051 Y4.4884 
G01 X48.5105 Y4.4684 
G01 X48.5208 Y4.4505 
G01 X48.5287 Y4.4314 
G01 X48.5413 Y4.4150 
G01 X48.5517 Y4.3970 
G01 X48.5663 Y4.3824 
G01 X48.5789 Y4.3660 
G01 X48.5954 Y4.3533 
G01 X48.6867 Y4.2620 
G01 X48.7869 Y4.1240 
G01 X48.8644 Y3.9720 
G01 X48.8269 Y3.9708 
G01 X48.7579 Y4.1062 
G01 X48.6607 Y4.2399 
G01 X48.5439 Y4.3567 
G01 X48.4102 Y4.4539 
G01 X48.2630 Y4.5289 
G01 X48.1058 Y4.5799 
G01 X47.9426 Y4.6058 
G01 X45.8978 Y4.6058 
G01 X45.7346 Y4.5799 
G01 X45.5774 Y4.5289 
G01 X45.4302 Y4.4539 
G01 X45.2965 Y4.3567 
G01 X45.1797 Y4.2399 
G01 X45.0825 Y4.1062 
G01 X45.0075 Y3.9590 
G01 X44.9564 Y3.8018 
G01 X44.9306 Y3.6386 
G01 X44.9306 Y3.4734 
G01 X44.9564 Y3.3102 
G01 X45.0075 Y3.1530 
G01 X45.0825 Y3.0058 
G01 X45.1797 Y2.8721 
G01 X45.2965 Y2.7553 
G01 X45.4302 Y2.6581 
G01 X45.5774 Y2.5831 
G01 X45.7346 Y2.5320 
G01 X45.8978 Y2.5062 
G01 X47.4706 Y2.5062 
G01 X47.4706 Y2.4722 
G01 X46.0364 Y2.4722 
G01 X45.9539 Y2.4722 
G01 X45.8742 Y2.4509 
G01 X45.8028 Y2.4096 
G01 X45.7454 Y2.3522 
G01 X45.7276 Y2.3220 
G01 X45.7033 Y2.2799 
G01 X45.6819 Y2.2002 
G01 X45.6819 Y2.1178 
G01 X45.7033 Y2.0381 
G01 X45.7445 Y1.9667 
G01 X45.7894 Y1.9218 
G01 X45.8028 Y1.9084 
G01 X45.8799 Y1.8313 
G01 X46.0990 Y1.3023 
G01 X46.0990 Y0.7297 
G01 X45.8799 Y0.2006 
G01 X45.4749 Y-0.2043 
G01 X44.9459 Y-0.4234 
G01 X42.4937 Y-0.4234 
G01 X41.9646 Y-0.2043 
G01 X41.5597 Y0.2006 
G01 X41.3406 Y0.7297 
G01 X41.3406 Y1.3023 
G01 X41.5597 Y1.8314 
G01 X41.6443 Y1.9159 
G01 X41.6562 Y1.9366 
G01 X41.6855 Y1.9873 
G01 X41.7009 Y2.0447 
G01 X41.7069 Y2.0670 
G01 X41.7069 Y2.1494 
G01 X41.6957 Y2.1912 
G01 X41.6855 Y2.2291 
G01 X41.6754 Y2.2467 
G01 X41.6443 Y2.3005 
G01 X41.5860 Y2.3588 
G01 X41.5652 Y2.3708 
G01 X41.5145 Y2.4001 
G01 X41.4571 Y2.4154 
G01 X41.4349 Y2.4214 
G01 X41.4051 Y2.4214 
G01 X41.2511 Y2.4852 
G01 X41.2331 Y2.4956 
G01 X41.2131 Y2.5009 
G01 X41.1940 Y2.5088 
G01 X41.1735 Y2.5115 
G01 X41.1535 Y2.5169 
G01 X41.1328 Y2.5169 
G01 X41.1123 Y2.5196 
G01 X41.0917 Y2.5169 
G01 X41.0710 Y2.5169 
G01 X41.0510 Y2.5115 
G01 X41.0305 Y2.5088 
G01 X41.0114 Y2.5009 
G01 X40.9914 Y2.4956 
G01 X40.9734 Y2.4852 
G01 X40.9543 Y2.4773 
G01 X40.9379 Y2.4647 
G01 X40.9199 Y2.4543 
G01 X40.9053 Y2.4397 
G01 X40.8889 Y2.4271 
G01 X40.8763 Y2.4107 
G01 X40.5473 Y2.0817 
G01 X40.0183 Y1.8626 
G01 X39.6290 Y1.8626 
G01 X39.5493 Y1.8413 
G01 X39.4779 Y1.8000 
G01 X39.4196 Y1.7417 
G01 X38.8187 Y1.1408 
G01 X38.6061 Y0.9282 
G01 X38.3478 Y0.8212 
G01 X28.4162 Y0.8212 
G01 X28.1579 Y0.9282 
G01 X25.9282 Y3.1579 
G01 X25.8212 Y3.4162 
G01 X25.8212 Y5.1604 
G01 X25.7999 Y5.2400 
G01 X25.7586 Y5.3115 
G01 X25.7003 Y5.3698 
G01 X25.4202 Y5.6499 
G01 X25.3132 Y5.9082 
G01 X25.3132 Y9.2838 
G01 X25.4202 Y9.5421 
G01 X25.9618 Y10.0837 
G01 X26.0031 Y10.1551 
G01 X26.0244 Y10.2348 
G01 X26.0244 Y11.2824 
G01 X26.0031 Y11.3621 
G01 X25.9618 Y11.4335 
G01 X25.9035 Y11.4918 
G01 X25.8321 Y11.5331 
G01 X25.7524 Y11.5544 
G01 X24.9866 Y11.5544 
G01 X24.7981 Y11.6325 
G01 X24.7713 Y11.6479 
G01 X24.7335 Y11.6698 
G01 X24.6838 Y11.6831 
G01 X24.6539 Y11.6911 
G01 X24.6129 Y11.6911 
G01 X24.5714 Y11.6911 
G01 X24.5394 Y11.6826 
G01 X24.4917 Y11.6698 
G01 X24.4628 Y11.6531 
G01 X24.4203 Y11.6286 
G01 X24.4060 Y11.6142 
G01 X24.3620 Y11.5703 
G01 X24.3426 Y11.5366 
G01 X24.3208 Y11.4989 
G01 X24.3074 Y11.4491 
G01 X24.2994 Y11.4192 
G01 X24.2994 Y11.3782 
G01 X24.2994 Y11.3367 
G01 X24.2994 Y10.8897 
G01 X24.0803 Y10.3606 
G01 X23.8179 Y10.0983 
G01 X23.7767 Y10.0269 
G01 X23.7553 Y9.9472 
G01 X23.7553 Y9.8648 
G01 X23.7767 Y9.7851 
G01 X23.7915 Y9.7595 
G01 X23.8179 Y9.7137 
G01 X23.8762 Y9.6554 
G01 X24.0803 Y9.4514 
G01 X24.2994 Y8.9223 
G01 X24.2994 Y8.3497 
G01 X24.0803 Y7.8206 
G01 X23.8179 Y7.5583 
G01 X23.8085 Y7.5420 
G01 X23.7767 Y7.4869 
G01 X23.7553 Y7.4072 
G01 X23.7553 Y7.3248 
G01 X23.7767 Y7.2451 
G01 X23.8034 Y7.1988 
G01 X23.8179 Y7.1737 
G01 X23.8762 Y7.1154 
G01 X24.0803 Y6.9114 
G01 X24.2994 Y6.3823 
G01 X24.2994 Y5.8097 
G01 X24.0803 Y5.2806 
G01 X23.6799 Y4.8803 
G01 X23.6635 Y4.8708 
G01 X23.6444 Y4.8629 
G01 X23.6279 Y4.8503 
G01 X23.6100 Y4.8399 
G01 X23.5954 Y4.8253 
G01 X23.5789 Y4.8127 
G01 X23.5663 Y4.7963 
G01 X23.5517 Y4.7816 
G01 X23.5414 Y4.7637 
G01 X23.5287 Y4.7473 
G01 X23.5208 Y4.7281 
G01 X23.5105 Y4.7102 
G01 X23.5051 Y4.6902 
G01 X23.4972 Y4.6711 
G01 X23.4945 Y4.6505 
G01 X23.4891 Y4.6306 
G01 X23.4891 Y4.6099 
G01 X23.4864 Y4.5893 
G01 X23.4891 Y4.5688 
G01 X23.4891 Y4.5481 
G01 X23.4945 Y4.5281 
G01 X23.4972 Y4.5076 
G01 X23.5051 Y4.4884 
G01 X23.5105 Y4.4684 
G01 X23.5208 Y4.4505 
G01 X23.5287 Y4.4314 
G01 X23.5414 Y4.4149 
G01 X23.5517 Y4.3970 
G01 X23.5663 Y4.3824 
G01 X23.5789 Y4.3659 
G01 X23.5954 Y4.3533 
G01 X23.6867 Y4.2620 
G01 X23.7869 Y4.1240 
G01 X23.8644 Y3.9720 
G01 X23.8269 Y3.9708 
G01 X23.7579 Y4.1062 
G01 X23.6607 Y4.2399 
G01 X23.5439 Y4.3567 
G01 X23.4102 Y4.4539 
G01 X23.2630 Y4.5289 
G01 X23.1058 Y4.5799 
G01 X22.9426 Y4.6058 
G01 X20.8978 Y4.6058 
G01 X20.7346 Y4.5799 
G01 X20.5774 Y4.5289 
G01 X20.4302 Y4.4539 
G01 X20.2965 Y4.3567 
G01 X20.1797 Y4.2399 
G01 X20.0825 Y4.1062 
G01 X20.0075 Y3.9590 
G01 X19.9565 Y3.8018 
G01 X19.9306 Y3.6386 
G01 X19.9306 Y3.4734 
G01 X19.9565 Y3.3102 
G01 X20.0075 Y3.1530 
G01 X20.0825 Y3.0058 
G01 X20.1797 Y2.8721 
G01 X20.2965 Y2.7553 
G01 X20.4302 Y2.6581 
G01 X20.5774 Y2.5831 
G01 X20.7346 Y2.5320 
G01 X20.8978 Y2.5062 
G01 X22.4706 Y2.5062 
G01 X22.4706 Y2.4722 
G01 X21.0364 Y2.4722 
G01 X20.9539 Y2.4722 
G01 X20.8742 Y2.4509 
G01 X20.8028 Y2.4096 
G01 X20.7454 Y2.3522 
G01 X20.7276 Y2.3220 
G01 X20.7033 Y2.2799 
G01 X20.6819 Y2.2002 
G01 X20.6819 Y2.1178 
G01 X20.7033 Y2.0381 
G01 X20.7445 Y1.9667 
G01 X20.7894 Y1.9218 
G01 X20.8028 Y1.9084 
G01 X20.8799 Y1.8313 
G01 X21.0990 Y1.3023 
G01 X21.0990 Y0.7297 
G01 X20.8799 Y0.2006 
G01 X20.4749 Y-0.2043 
G01 X19.9459 Y-0.4234 
G01 X17.4937 Y-0.4234 
G01 X16.9646 Y-0.2043 
G01 X16.5597 Y0.2006 
G01 X16.3406 Y0.7297 
G01 X16.3406 Y1.3023 
G01 X16.5597 Y1.8314 
G01 X16.6443 Y1.9159 
G01 X16.6562 Y1.9366 
G01 X16.6855 Y1.9873 
G01 X16.7009 Y2.0447 
G01 X16.7068 Y2.0670 
G01 X16.7068 Y2.1494 
G01 X16.6957 Y2.1912 
G01 X16.6855 Y2.2291 
G01 X16.6754 Y2.2467 
G01 X16.6443 Y2.3005 
G01 X16.5860 Y2.3588 
G01 X16.5652 Y2.3708 
G01 X16.5145 Y2.4001 
G01 X16.4571 Y2.4154 
G01 X16.4349 Y2.4214 
G01 X16.4051 Y2.4214 
G01 X16.2511 Y2.4852 
G01 X16.2331 Y2.4956 
G01 X16.2131 Y2.5009 
G01 X16.1940 Y2.5088 
G01 X16.1735 Y2.5115 
G01 X16.1535 Y2.5169 
G01 X16.1328 Y2.5169 
G01 X16.1123 Y2.5196 
G01 X16.0917 Y2.5169 
G01 X16.0710 Y2.5169 
G01 X16.0510 Y2.5115 
G01 X16.0305 Y2.5088 
G01 X16.0114 Y2.5009 
G01 X15.9914 Y2.4956 
G01 X15.9734 Y2.4852 
G01 X15.9543 Y2.4773 
G01 X15.9379 Y2.4647 
G01 X15.9199 Y2.4543 
G01 X15.9053 Y2.4397 
G01 X15.8889 Y2.4271 
G01 X15.8763 Y2.4107 
G01 X15.5473 Y2.0817 
G01 X15.0183 Y1.8626 
G01 X14.6290 Y1.8626 
G01 X14.5493 Y1.8413 
G01 X14.4779 Y1.8000 
G01 X13.8187 Y1.1408 
G01 X13.6061 Y0.9282 
G01 X13.3478 Y0.8212 
G01 X3.4162 Y0.8212 
G01 X3.1579 Y0.9282 
G00 Z0.7000 
G00 X3.3054 Y1.3317 
G01 Z-0.1100 F254.00 
G01 X3.3637 Y1.2734 F508.00 
G01 X3.4351 Y1.2321 
G01 X3.5148 Y1.2108 
G01 X13.2492 Y1.2108 
G01 X13.3289 Y1.2321 
G01 X13.4003 Y1.2734 
G01 X13.4586 Y1.3317 
G01 X14.4249 Y2.2980 
G01 X14.4862 Y2.2780 
G01 X14.6494 Y2.2522 
G01 X14.8146 Y2.2522 
G01 X14.9778 Y2.2780 
G01 X15.1350 Y2.3291 
G01 X15.2822 Y2.4041 
G01 X15.4159 Y2.5013 
G01 X15.5327 Y2.6181 
G01 X15.6299 Y2.7518 
G01 X15.7049 Y2.8990 
G01 X15.7559 Y3.0562 
G01 X15.7818 Y3.2194 
G01 X15.7818 Y3.3846 
G01 X15.7559 Y3.5478 
G01 X15.7049 Y3.7050 
G01 X15.6299 Y3.8522 
G01 X15.5327 Y3.9859 
G01 X15.4159 Y4.1027 
G01 X15.2822 Y4.1999 
G01 X15.1350 Y4.2749 
G01 X14.9778 Y4.3259 
G01 X14.8146 Y4.3518 
G01 X14.6494 Y4.3518 
G01 X14.4862 Y4.3259 
G01 X14.3290 Y4.2749 
G01 X14.1818 Y4.1999 
G01 X14.0481 Y4.1027 
G01 X13.9313 Y3.9859 
G01 X13.8341 Y3.8522 
G01 X13.7591 Y3.7050 
G01 X13.7081 Y3.5478 
G01 X13.6822 Y3.3846 
G01 X13.6822 Y3.2194 
G01 X13.7081 Y3.0562 
G01 X13.7591 Y2.8990 
G01 X13.8341 Y2.7518 
G01 X13.9009 Y2.6599 
G01 X13.0783 Y1.8372 
G01 X3.6857 Y1.8372 
G01 X1.8372 Y3.6857 
G01 X1.8372 Y5.5812 
G01 X1.8159 Y5.6609 
G01 X1.7746 Y5.7323 
G01 X1.3292 Y6.1777 
G01 X1.3292 Y9.0143 
G01 X2.4783 Y10.1634 
G01 X2.5366 Y10.2217 
G01 X2.5779 Y10.2931 
G01 X2.5992 Y10.3728 
G01 X2.5992 Y15.3643 
G01 X3.1777 Y15.9428 
G01 X4.2223 Y15.9428 
G01 X4.2515 Y15.8530 
G01 X4.3265 Y15.7058 
G01 X4.4237 Y15.5721 
G01 X4.5405 Y15.4553 
G01 X4.6742 Y15.3581 
G01 X4.8214 Y15.2831 
G01 X4.9786 Y15.2320 
G01 X5.1418 Y15.2062 
G01 X5.7543 Y15.2062 
G01 X5.7077 Y15.1869 
G01 X5.3120 Y14.7912 
G01 X5.2928 Y14.7912 
G01 X5.2131 Y14.7699 
G01 X5.1417 Y14.7286 
G01 X5.0834 Y14.6703 
G01 X5.0421 Y14.5989 
G01 X5.0208 Y14.5192 
G01 X5.0208 Y10.1188 
G01 X5.0421 Y10.0391 
G01 X5.0834 Y9.9677 
G01 X5.5288 Y9.5223 
G01 X5.5288 Y7.3248 
G01 X5.5501 Y7.2451 
G01 X5.5914 Y7.1737 
G01 X5.6370 Y7.1281 
G01 X5.6370 Y4.8099 
G01 X5.5914 Y4.7643 
G01 X5.5501 Y4.6929 
G01 X5.5288 Y4.6132 
G01 X5.5288 Y4.5308 
G01 X5.5501 Y4.4511 
G01 X5.5914 Y4.3797 
G01 X6.1820 Y3.7891 
G01 X6.1391 Y3.7050 
G01 X6.0880 Y3.5478 
G01 X6.0622 Y3.3846 
G01 X6.0622 Y3.2194 
G01 X6.0880 Y3.0562 
G01 X6.1391 Y2.8990 
G01 X6.2141 Y2.7518 
G01 X6.3113 Y2.6181 
G01 X6.4281 Y2.5013 
G01 X6.5618 Y2.4041 
G01 X6.7090 Y2.3291 
G01 X6.8662 Y2.2780 
G01 X7.0294 Y2.2522 
G01 X7.1946 Y2.2522 
G01 X7.3578 Y2.2780 
G01 X7.5150 Y2.3291 
G01 X7.6622 Y2.4041 
G01 X7.7959 Y2.5013 
G01 X7.9127 Y2.6181 
G01 X8.0099 Y2.7518 
G01 X8.0849 Y2.8990 
G01 X8.1359 Y3.0562 
G01 X8.1618 Y3.2194 
G01 X8.1618 Y3.3846 
G01 X8.1359 Y3.5478 
G01 X8.0849 Y3.7050 
G01 X8.0099 Y3.8522 
G01 X7.9127 Y3.9859 
G01 X7.7959 Y4.1027 
G01 X7.6622 Y4.1999 
G01 X7.5150 Y4.2749 
G01 X7.3578 Y4.3259 
G01 X7.1946 Y4.3518 
G01 X7.0294 Y4.3518 
G01 X6.8662 Y4.3259 
G01 X6.7090 Y4.2749 
G01 X6.6249 Y4.2320 
G01 X6.0470 Y4.8099 
G01 X6.0470 Y7.1281 
G01 X6.0926 Y7.1737 
G01 X6.1339 Y7.2451 
G01 X6.1552 Y7.3248 
G01 X6.1552 Y9.6932 
G01 X6.1339 Y9.7729 
G01 X6.0926 Y9.8443 
G01 X6.0343 Y9.9026 
G01 X5.6472 Y10.2897 
G01 X5.6472 Y14.4560 
G01 X5.9722 Y14.7810 
G01 X8.1441 Y14.7810 
G01 X8.1897 Y14.7354 
G01 X8.2611 Y14.6941 
G01 X8.3408 Y14.6728 
G01 X8.9312 Y14.6728 
G01 X9.0109 Y14.6941 
G01 X9.0823 Y14.7354 
G01 X9.1406 Y14.7937 
G01 X9.8443 Y15.4974 
G01 X9.9026 Y15.5557 
G01 X9.9439 Y15.6271 
G01 X9.9652 Y15.7068 
G01 X9.9652 Y18.0752 
G01 X9.9439 Y18.1549 
G01 X9.9026 Y18.2263 
G01 X9.8914 Y18.2375 
G01 X9.8975 Y18.2458 
G01 X9.9725 Y18.3930 
G01 X10.0235 Y18.5502 
G01 X10.0494 Y18.7134 
G01 X10.0494 Y18.8786 
G01 X10.0235 Y19.0418 
G01 X9.9725 Y19.1990 
G01 X9.8975 Y19.3462 
G01 X9.8003 Y19.4799 
G01 X9.6835 Y19.5967 
G01 X9.5498 Y19.6939 
G01 X9.4026 Y19.7689 
G01 X9.2454 Y19.8199 
G01 X9.0822 Y19.8458 
G01 X7.0374 Y19.8458 
G01 X6.8742 Y19.8199 
G01 X6.7170 Y19.7689 
G01 X6.5698 Y19.6939 
G01 X6.4361 Y19.5967 
G01 X6.3193 Y19.4799 
G01 X6.2221 Y19.3462 
G01 X6.1471 Y19.1990 
G01 X6.0960 Y19.0418 
G01 X6.0702 Y18.8786 
G01 X6.0702 Y18.7134 
G01 X6.0960 Y18.5502 
G01 X6.1471 Y18.3930 
G01 X6.2221 Y18.2458 
G01 X6.3193 Y18.1121 
G01 X6.4361 Y17.9953 
G01 X6.5698 Y17.8981 
G01 X6.7170 Y17.8231 
G01 X6.8742 Y17.7721 
G01 X7.0374 Y17.7462 
G01 X9.0822 Y17.7462 
G01 X9.2454 Y17.7721 
G01 X9.3388 Y17.8024 
G01 X9.3388 Y15.8777 
G01 X8.7603 Y15.2992 
G01 X8.3408 Y15.2992 
G01 X8.2611 Y15.2779 
G01 X8.1897 Y15.2366 
G01 X8.1441 Y15.1910 
G01 X5.9664 Y15.1910 
G01 X5.9297 Y15.2062 
G01 X7.1866 Y15.2062 
G01 X7.3498 Y15.2320 
G01 X7.5070 Y15.2831 
G01 X7.6542 Y15.3581 
G01 X7.7879 Y15.4553 
G01 X7.9047 Y15.5721 
G01 X8.0019 Y15.7058 
G01 X8.0769 Y15.8530 
G01 X8.1279 Y16.0102 
G01 X8.1538 Y16.1734 
G01 X8.1538 Y16.3386 
G01 X8.1279 Y16.5018 
G01 X8.0769 Y16.6590 
G01 X8.0019 Y16.8062 
G01 X7.9047 Y16.9399 
G01 X7.7879 Y17.0567 
G01 X7.6542 Y17.1539 
G01 X7.5070 Y17.2289 
G01 X7.3498 Y17.2799 
G01 X7.1866 Y17.3058 
G01 X5.1418 Y17.3058 
G01 X4.9786 Y17.2799 
G01 X4.8214 Y17.2289 
G01 X4.6742 Y17.1539 
G01 X4.5405 Y17.0567 
G01 X4.4237 Y16.9399 
G01 X4.3265 Y16.8062 
G01 X4.2515 Y16.6590 
G01 X4.2223 Y16.5692 
G01 X3.0068 Y16.5692 
G01 X2.9271 Y16.5479 
G01 X2.8557 Y16.5066 
G01 X2.7974 Y16.4483 
G01 X2.0354 Y15.6863 
G01 X1.9941 Y15.6149 
G01 X1.9728 Y15.5352 
G01 X1.9728 Y10.5437 
G01 X0.8237 Y9.3946 
G01 X0.7654 Y9.3363 
G01 X0.7241 Y9.2649 
G01 X0.7028 Y9.1852 
G01 X0.7028 Y6.0068 
G01 X0.7241 Y5.9271 
G01 X0.7654 Y5.8557 
G01 X1.2108 Y5.4103 
G01 X1.2108 Y3.5148 
G01 X1.2321 Y3.4351 
G01 X1.2734 Y3.3637 
G01 X1.3317 Y3.3054 
G01 X3.3054 Y1.3317 
G00 Z0.7000 
G00 X3.2608 Y2.9888 
G01 Z-0.1100 F254.00 
G01 X3.5699 Y2.9888 F508.00 
G01 X3.5991 Y2.8990 
G01 X3.6741 Y2.7518 
G01 X3.7713 Y2.6181 
G01 X3.8881 Y2.5013 
G01 X4.0218 Y2.4041 
G01 X4.1690 Y2.3291 
G01 X4.3262 Y2.2780 
G01 X4.4894 Y2.2522 
G01 X4.6546 Y2.2522 
G01 X4.8178 Y2.2780 
G01 X4.9750 Y2.3291 
G01 X5.1222 Y2.4041 
G01 X5.2559 Y2.5013 
G01 X5.3727 Y2.6181 
G01 X5.4699 Y2.7518 
G01 X5.5449 Y2.8990 
G01 X5.5959 Y3.0562 
G01 X5.6218 Y3.2194 
G01 X5.6218 Y3.3846 
G01 X5.5959 Y3.5478 
G01 X5.5449 Y3.7050 
G01 X5.4699 Y3.8522 
G01 X5.3727 Y3.9859 
G01 X5.2559 Y4.1027 
G01 X5.1222 Y4.1999 
G01 X4.9750 Y4.2749 
G01 X4.8178 Y4.3259 
G01 X4.6546 Y4.3518 
G01 X4.4894 Y4.3518 
G01 X4.3262 Y4.3259 
G01 X4.1690 Y4.2749 
G01 X4.0218 Y4.1999 
G01 X3.8881 Y4.1027 
G01 X3.7713 Y3.9859 
G01 X3.6741 Y3.8522 
G01 X3.5991 Y3.7050 
G01 X3.5699 Y3.6152 
G01 X3.4317 Y3.6152 
G01 X2.8532 Y4.1937 
G01 X2.8532 Y6.4996 
G01 X3.5392 Y7.4143 
G01 X3.5526 Y7.4277 
G01 X3.5638 Y7.4471 
G01 X3.5773 Y7.4651 
G01 X3.5844 Y7.4827 
G01 X3.5939 Y7.4991 
G01 X3.5997 Y7.5208 
G01 X3.6080 Y7.5416 
G01 X3.6103 Y7.5604 
G01 X3.6152 Y7.5788 
G01 X3.6152 Y7.6012 
G01 X3.6179 Y7.6235 
G01 X3.6152 Y7.6423 
G01 X3.6152 Y11.9440 
G01 X4.5079 Y11.9440 
G01 X4.5483 Y11.9607 
G01 X4.5793 Y11.9917 
G01 X4.5960 Y12.0321 
G01 X4.5960 Y13.8759 
G01 X4.5793 Y13.9163 
G01 X4.5483 Y13.9473 
G01 X4.5079 Y13.9640 
G01 X2.8641 Y13.9640 
G01 X2.8237 Y13.9473 
G01 X2.7927 Y13.9163 
G01 X2.7760 Y13.8759 
G01 X2.7760 Y12.0321 
G01 X2.7927 Y11.9917 
G01 X2.8237 Y11.9607 
G01 X2.8641 Y11.9440 
G01 X2.9888 Y11.9440 
G01 X2.9888 Y7.7244 
G01 X2.3028 Y6.8097 
G01 X2.2894 Y6.7963 
G01 X2.2782 Y6.7769 
G01 X2.2647 Y6.7589 
G01 X2.2576 Y6.7413 
G01 X2.2481 Y6.7249 
G01 X2.2423 Y6.7032 
G01 X2.2340 Y6.6824 
G01 X2.2317 Y6.6636 
G01 X2.2268 Y6.6452 
G01 X2.2268 Y6.6228 
G01 X2.2241 Y6.6005 
G01 X2.2268 Y6.5817 
G01 X2.2268 Y4.0228 
G01 X2.2481 Y3.9431 
G01 X2.2894 Y3.8717 
G01 X2.3477 Y3.8134 
G01 X3.0514 Y3.1097 
G01 X3.1097 Y3.0514 
G01 X3.1811 Y3.0101 
G01 X3.2608 Y2.9888 
G00 Z0.7000 
G00 X3.7713 Y5.1581 
G01 Z-0.1100 F254.00 
G01 X3.8881 Y5.0413 F508.00 
G01 X4.0218 Y4.9441 
G01 X4.1690 Y4.8691 
G01 X4.3262 Y4.8181 
G01 X4.4894 Y4.7922 
G01 X4.6546 Y4.7922 
G01 X4.8178 Y4.8181 
G01 X4.9750 Y4.8691 
G01 X5.1222 Y4.9441 
G01 X5.2559 Y5.0413 
G01 X5.3727 Y5.1581 
G01 X5.4699 Y5.2918 
G01 X5.5449 Y5.4390 
G01 X5.5959 Y5.5962 
G01 X5.6218 Y5.7594 
G01 X5.6218 Y5.9246 
G01 X5.5959 Y6.0878 
G01 X5.5449 Y6.2450 
G01 X5.4699 Y6.3922 
G01 X5.3727 Y6.5259 
G01 X5.2559 Y6.6427 
G01 X5.1222 Y6.7399 
G01 X4.9750 Y6.8149 
G01 X4.8178 Y6.8659 
G01 X4.6546 Y6.8918 
G01 X4.4894 Y6.8918 
G01 X4.3262 Y6.8659 
G01 X4.1690 Y6.8149 
G01 X4.0218 Y6.7399 
G01 X3.8881 Y6.6427 
G01 X3.7713 Y6.5259 
G01 X3.6741 Y6.3922 
G01 X3.5991 Y6.2450 
G01 X3.5480 Y6.0878 
G01 X3.5222 Y5.9246 
G01 X3.5222 Y5.7594 
G01 X3.5480 Y5.5962 
G01 X3.5991 Y5.4390 
G01 X3.6741 Y5.2918 
G01 X3.7713 Y5.1581 
G00 Z0.7000 
G00 X6.3113 Y5.1581 
G01 Z-0.1100 F254.00 
G01 X6.4281 Y5.0413 F508.00 
G01 X6.5618 Y4.9441 
G01 X6.7090 Y4.8691 
G01 X6.8662 Y4.8181 
G01 X7.0294 Y4.7922 
G01 X7.1946 Y4.7922 
G01 X7.3578 Y4.8181 
G01 X7.5150 Y4.8691 
G01 X7.6622 Y4.9441 
G01 X7.7959 Y5.0413 
G01 X7.9127 Y5.1581 
G01 X8.0099 Y5.2918 
G01 X8.0849 Y5.4390 
G01 X8.1359 Y5.5962 
G01 X8.1618 Y5.7594 
G01 X8.1618 Y5.9246 
G01 X8.1359 Y6.0878 
G01 X8.0849 Y6.2450 
G01 X8.0099 Y6.3922 
G01 X7.9127 Y6.5259 
G01 X7.7959 Y6.6427 
G01 X7.6622 Y6.7399 
G01 X7.5150 Y6.8149 
G01 X7.3578 Y6.8659 
G01 X7.1946 Y6.8918 
G01 X7.0294 Y6.8918 
G01 X6.8662 Y6.8659 
G01 X6.7090 Y6.8149 
G01 X6.5618 Y6.7399 
G01 X6.4281 Y6.6427 
G01 X6.3113 Y6.5259 
G01 X6.2141 Y6.3922 
G01 X6.1391 Y6.2450 
G01 X6.0880 Y6.0878 
G01 X6.0622 Y5.9246 
G01 X6.0622 Y5.7594 
G01 X6.0880 Y5.5962 
G01 X6.1391 Y5.4390 
G01 X6.2141 Y5.2918 
G01 X6.3113 Y5.1581 
G00 Z0.7000 
G00 X8.1770 Y4.8099 
G01 Z-0.1100 F254.00 
G01 X8.1314 Y4.7643 F508.00 
G01 X8.0901 Y4.6929 
G01 X8.0688 Y4.6132 
G01 X8.0688 Y4.5308 
G01 X8.0901 Y4.4511 
G01 X8.1314 Y4.3797 
G01 X8.7220 Y3.7891 
G01 X8.6791 Y3.7050 
G01 X8.6280 Y3.5478 
G01 X8.6022 Y3.3846 
G01 X8.6022 Y3.2194 
G01 X8.6280 Y3.0562 
G01 X8.6791 Y2.8990 
G01 X8.7541 Y2.7518 
G01 X8.8513 Y2.6181 
G01 X8.9681 Y2.5013 
G01 X9.1018 Y2.4041 
G01 X9.2490 Y2.3291 
G01 X9.4062 Y2.2780 
G01 X9.5694 Y2.2522 
G01 X9.7346 Y2.2522 
G01 X9.8978 Y2.2780 
G01 X10.0550 Y2.3291 
G01 X10.2022 Y2.4041 
G01 X10.3359 Y2.5013 
G01 X10.4527 Y2.6181 
G01 X10.5499 Y2.7518 
G01 X10.6249 Y2.8990 
G01 X10.6759 Y3.0562 
G01 X10.7018 Y3.2194 
G01 X10.7018 Y3.3846 
G01 X10.6759 Y3.5478 
G01 X10.6249 Y3.7050 
G01 X10.5499 Y3.8522 
G01 X10.4527 Y3.9859 
G01 X10.3359 Y4.1027 
G01 X10.2022 Y4.1999 
G01 X10.0550 Y4.2749 
G01 X9.8978 Y4.3259 
G01 X9.7346 Y4.3518 
G01 X9.5694 Y4.3518 
G01 X9.4062 Y4.3259 
G01 X9.2490 Y4.2749 
G01 X9.1649 Y4.2320 
G01 X8.5870 Y4.8099 
G01 X8.5870 Y7.1281 
G01 X8.6326 Y7.1737 
G01 X8.6739 Y7.2451 
G01 X8.6952 Y7.3248 
G01 X8.6952 Y9.9472 
G01 X8.6739 Y10.0269 
G01 X8.6326 Y10.0983 
G01 X7.7422 Y10.9887 
G01 X7.7959 Y11.0277 
G01 X7.9127 Y11.1445 
G01 X8.0099 Y11.2782 
G01 X8.0849 Y11.4254 
G01 X8.1359 Y11.5826 
G01 X8.1618 Y11.7458 
G01 X8.1618 Y13.7906 
G01 X8.1359 Y13.9538 
G01 X8.0849 Y14.1110 
G01 X8.0099 Y14.2582 
G01 X7.9127 Y14.3919 
G01 X7.7959 Y14.5087 
G01 X7.6622 Y14.6059 
G01 X7.5150 Y14.6809 
G01 X7.3578 Y14.7319 
G01 X7.1946 Y14.7578 
G01 X7.0294 Y14.7578 
G01 X6.8662 Y14.7319 
G01 X6.7090 Y14.6809 
G01 X6.5618 Y14.6059 
G01 X6.4281 Y14.5087 
G01 X6.3113 Y14.3919 
G01 X6.2141 Y14.2582 
G01 X6.1391 Y14.1110 
G01 X6.0880 Y13.9538 
G01 X6.0622 Y13.7906 
G01 X6.0622 Y11.7458 
G01 X6.0880 Y11.5826 
G01 X6.1391 Y11.4254 
G01 X6.2141 Y11.2782 
G01 X6.3113 Y11.1445 
G01 X6.4281 Y11.0277 
G01 X6.5618 Y10.9305 
G01 X6.7090 Y10.8555 
G01 X6.8662 Y10.8044 
G01 X7.0294 Y10.7786 
G01 X7.0665 Y10.7786 
G01 X8.0688 Y9.7763 
G01 X8.0688 Y7.3248 
G01 X8.0901 Y7.2451 
G01 X8.1314 Y7.1737 
G01 X8.1770 Y7.1281 
G01 X8.1770 Y4.8099 
G00 Z0.7000 
G00 X8.8513 Y5.1581 
G01 Z-0.1100 F254.00 
G01 X8.9681 Y5.0413 F508.00 
G01 X9.1018 Y4.9441 
G01 X9.2490 Y4.8691 
G01 X9.4062 Y4.8181 
G01 X9.5694 Y4.7922 
G01 X9.7346 Y4.7922 
G01 X9.8978 Y4.8181 
G01 X10.0550 Y4.8691 
G01 X10.2022 Y4.9441 
G01 X10.3359 Y5.0413 
G01 X10.4527 Y5.1581 
G01 X10.5499 Y5.2918 
G01 X10.6249 Y5.4390 
G01 X10.6759 Y5.5962 
G01 X10.7018 Y5.7594 
G01 X10.7018 Y5.9246 
G01 X10.6759 Y6.0878 
G01 X10.6249 Y6.2450 
G01 X10.5820 Y6.3291 
G01 X11.1726 Y6.9197 
G01 X11.2139 Y6.9911 
G01 X11.2352 Y7.0708 
G01 X11.2352 Y10.0303 
G01 X11.8137 Y10.6088 
G01 X18.0752 Y10.6088 
G01 X18.1549 Y10.6301 
G01 X18.2263 Y10.6714 
G01 X18.2846 Y10.7297 
G01 X20.3971 Y12.8422 
G01 X20.4302 Y12.8181 
G01 X20.5774 Y12.7431 
G01 X20.7346 Y12.6921 
G01 X20.8978 Y12.6662 
G01 X22.9426 Y12.6662 
G01 X23.1058 Y12.6921 
G01 X23.2630 Y12.7431 
G01 X23.4102 Y12.8181 
G01 X23.5439 Y12.9153 
G01 X23.6607 Y13.0321 
G01 X23.7579 Y13.1658 
G01 X23.8329 Y13.3130 
G01 X23.8839 Y13.4702 
G01 X23.9098 Y13.6334 
G01 X23.9098 Y13.7986 
G01 X23.8839 Y13.9618 
G01 X23.8329 Y14.1190 
G01 X23.7579 Y14.2662 
G01 X23.6607 Y14.3999 
G01 X23.5439 Y14.5167 
G01 X23.4102 Y14.6139 
G01 X23.2630 Y14.6889 
G01 X23.1058 Y14.7399 
G01 X22.9426 Y14.7658 
G01 X20.8978 Y14.7658 
G01 X20.7346 Y14.7399 
G01 X20.5774 Y14.6889 
G01 X20.4302 Y14.6139 
G01 X20.2965 Y14.5167 
G01 X20.1797 Y14.3999 
G01 X20.0825 Y14.2662 
G01 X20.0075 Y14.1190 
G01 X19.9565 Y13.9618 
G01 X19.9306 Y13.7986 
G01 X19.9306 Y13.6334 
G01 X19.9565 Y13.4702 
G01 X20.0013 Y13.3322 
G01 X17.9043 Y11.2352 
G01 X11.6428 Y11.2352 
G01 X11.5631 Y11.2139 
G01 X11.4917 Y11.1726 
G01 X10.6714 Y10.3523 
G01 X10.6301 Y10.2809 
G01 X10.6088 Y10.2012 
G01 X10.6088 Y10.1188 
G01 X10.6088 Y7.2417 
G01 X10.1391 Y6.7720 
G01 X10.0550 Y6.8149 
G01 X9.8978 Y6.8659 
G01 X9.7346 Y6.8918 
G01 X9.5694 Y6.8918 
G01 X9.4062 Y6.8659 
G01 X9.2490 Y6.8149 
G01 X9.1018 Y6.7399 
G01 X8.9681 Y6.6427 
G01 X8.8513 Y6.5259 
G01 X8.7541 Y6.3922 
G01 X8.6791 Y6.2450 
G01 X8.6280 Y6.0878 
G01 X8.6022 Y5.9246 
G01 X8.6022 Y5.7594 
G01 X8.6280 Y5.5962 
G01 X8.6791 Y5.4390 
G01 X8.7541 Y5.2918 
G01 X8.8513 Y5.1581 
G00 Z0.7000 
G00 X11.3913 Y5.1581 
G01 Z-0.1100 F254.00 
G01 X11.5081 Y5.0413 F508.00 
G01 X11.6418 Y4.9441 
G01 X11.7890 Y4.8691 
G01 X11.9462 Y4.8181 
G01 X12.1094 Y4.7922 
G01 X12.2746 Y4.7922 
G01 X12.4378 Y4.8181 
G01 X12.5950 Y4.8691 
G01 X12.7422 Y4.9441 
G01 X12.8759 Y5.0413 
G01 X12.9927 Y5.1581 
G01 X13.0899 Y5.2918 
G01 X13.1649 Y5.4390 
G01 X13.2159 Y5.5962 
G01 X13.2418 Y5.7594 
G01 X13.2418 Y5.9246 
G01 X13.2159 Y6.0878 
G01 X13.1649 Y6.2450 
G01 X13.1220 Y6.3291 
G01 X13.7126 Y6.9197 
G01 X13.7539 Y6.9911 
G01 X13.7752 Y7.0708 
G01 X13.7752 Y9.0143 
G01 X14.3537 Y9.5928 
G01 X18.8372 Y9.5928 
G01 X18.9169 Y9.6141 
G01 X18.9883 Y9.6554 
G01 X19.0466 Y9.7137 
G01 X20.0407 Y10.7078 
G01 X20.0825 Y10.6258 
G01 X20.1797 Y10.4921 
G01 X20.2965 Y10.3753 
G01 X20.4302 Y10.2781 
G01 X20.5774 Y10.2031 
G01 X20.7346 Y10.1520 
G01 X20.8978 Y10.1262 
G01 X22.9426 Y10.1262 
G01 X23.1058 Y10.1520 
G01 X23.2630 Y10.2031 
G01 X23.4102 Y10.2781 
G01 X23.5439 Y10.3753 
G01 X23.6607 Y10.4921 
G01 X23.7579 Y10.6258 
G01 X23.8329 Y10.7730 
G01 X23.8839 Y10.9302 
G01 X23.9098 Y11.0934 
G01 X23.9098 Y11.2586 
G01 X23.8839 Y11.4218 
G01 X23.8329 Y11.5790 
G01 X23.7579 Y11.7262 
G01 X23.6607 Y11.8599 
G01 X23.5439 Y11.9767 
G01 X23.4102 Y12.0739 
G01 X23.2630 Y12.1489 
G01 X23.1058 Y12.1999 
G01 X22.9426 Y12.2258 
G01 X20.8978 Y12.2258 
G01 X20.7346 Y12.1999 
G01 X20.5774 Y12.1489 
G01 X20.4302 Y12.0739 
G01 X20.2965 Y11.9767 
G01 X20.1797 Y11.8599 
G01 X20.0825 Y11.7262 
G01 X20.0075 Y11.5790 
G01 X19.9739 Y11.4756 
G01 X19.9451 Y11.4679 
G01 X19.8737 Y11.4266 
G01 X18.6663 Y10.2192 
G01 X14.1828 Y10.2192 
G01 X14.1031 Y10.1979 
G01 X14.0317 Y10.1566 
G01 X13.2114 Y9.3363 
G01 X13.1701 Y9.2649 
G01 X13.1488 Y9.1852 
G01 X13.1488 Y9.1028 
G01 X13.1488 Y7.2417 
G01 X12.6791 Y6.7720 
G01 X12.5950 Y6.8149 
G01 X12.4378 Y6.8659 
G01 X12.2746 Y6.8918 
G01 X12.1094 Y6.8918 
G01 X11.9462 Y6.8659 
G01 X11.7890 Y6.8149 
G01 X11.6418 Y6.7399 
G01 X11.5081 Y6.6427 
G01 X11.3913 Y6.5259 
G01 X11.2941 Y6.3922 
G01 X11.2191 Y6.2450 
G01 X11.1680 Y6.0878 
G01 X11.1422 Y5.9246 
G01 X11.1422 Y5.7594 
G01 X11.1680 Y5.5962 
G01 X11.2191 Y5.4390 
G01 X11.2941 Y5.2918 
G01 X11.3913 Y5.1581 
G00 Z0.7000 
G00 X11.5081 Y4.1027 
G01 Z-0.1100 F254.00 
G01 X11.3913 Y3.9859 F508.00 
G01 X11.2941 Y3.8522 
G01 X11.2191 Y3.7050 
G01 X11.1680 Y3.5478 
G01 X11.1422 Y3.3846 
G01 X11.1422 Y3.2194 
G01 X11.1680 Y3.0562 
G01 X11.2191 Y2.8990 
G01 X11.2941 Y2.7518 
G01 X11.3913 Y2.6181 
G01 X11.5081 Y2.5013 
G01 X11.6418 Y2.4041 
G01 X11.7890 Y2.3291 
G01 X11.9462 Y2.2780 
G01 X12.1094 Y2.2522 
G01 X12.2746 Y2.2522 
G01 X12.4378 Y2.2780 
G01 X12.5950 Y2.3291 
G01 X12.7422 Y2.4041 
G01 X12.8759 Y2.5013 
G01 X12.9927 Y2.6181 
G01 X13.0899 Y2.7518 
G01 X13.1649 Y2.8990 
G01 X13.2159 Y3.0562 
G01 X13.2418 Y3.2194 
G01 X13.2418 Y3.3846 
G01 X13.2159 Y3.5478 
G01 X13.1649 Y3.7050 
G01 X13.0899 Y3.8522 
G01 X12.9927 Y3.9859 
G01 X12.8759 Y4.1027 
G01 X12.7422 Y4.1999 
G01 X12.5950 Y4.2749 
G01 X12.4378 Y4.3259 
G01 X12.2746 Y4.3518 
G01 X12.1094 Y4.3518 
G01 X11.9462 Y4.3259 
G01 X11.7890 Y4.2749 
G01 X11.6418 Y4.1999 
G01 X11.5081 Y4.1027 
G00 Z0.7000 
G00 X13.9313 Y5.1581 
G01 Z-0.1100 F254.00 
G01 X14.0481 Y5.0413 F508.00 
G01 X14.1818 Y4.9441 
G01 X14.3290 Y4.8691 
G01 X14.4862 Y4.8181 
G01 X14.6494 Y4.7922 
G01 X14.8146 Y4.7922 
G01 X14.9778 Y4.8181 
G01 X15.1350 Y4.8691 
G01 X15.2822 Y4.9441 
G01 X15.4159 Y5.0413 
G01 X15.5327 Y5.1581 
G01 X15.6299 Y5.2918 
G01 X15.6989 Y5.4272 
G01 X16.3365 Y5.4272 
G01 X16.3365 Y5.1851 
G01 X16.3492 Y5.1545 
G01 X16.3492 Y3.5594 
G01 X16.3775 Y3.4539 
G01 X16.3945 Y3.4244 
G01 X16.3945 Y2.8991 
G01 X16.4112 Y2.8587 
G01 X16.4422 Y2.8277 
G01 X16.4826 Y2.8110 
G01 X17.1614 Y2.8110 
G01 X17.2018 Y2.8277 
G01 X17.2327 Y2.8587 
G01 X17.2495 Y2.8991 
G01 X17.2495 Y4.2129 
G01 X17.2327 Y4.2533 
G01 X17.2018 Y4.2843 
G01 X17.1788 Y4.2938 
G01 X17.1788 Y5.1545 
G01 X17.1915 Y5.1851 
G01 X17.1915 Y5.6304 
G01 X17.3525 Y5.6304 
G01 X17.3525 Y5.1851 
G01 X17.3692 Y5.1447 
G01 X17.4002 Y5.1137 
G01 X17.4406 Y5.0970 
G01 X18.1194 Y5.0970 
G01 X18.1598 Y5.1137 
G01 X18.1908 Y5.1447 
G01 X18.2075 Y5.1851 
G01 X18.2075 Y5.4272 
G01 X20.1687 Y5.4272 
G01 X20.1797 Y5.4121 
G01 X20.2965 Y5.2953 
G01 X20.4302 Y5.1981 
G01 X20.5774 Y5.1231 
G01 X20.7346 Y5.0720 
G01 X20.8978 Y5.0462 
G01 X22.9426 Y5.0462 
G01 X23.1058 Y5.0720 
G01 X23.2630 Y5.1231 
G01 X23.4102 Y5.1981 
G01 X23.5439 Y5.2953 
G01 X23.6607 Y5.4121 
G01 X23.7579 Y5.5458 
G01 X23.8329 Y5.6930 
G01 X23.8839 Y5.8502 
G01 X23.9098 Y6.0134 
G01 X23.9098 Y6.1786 
G01 X23.8839 Y6.3418 
G01 X23.8329 Y6.4990 
G01 X23.7579 Y6.6462 
G01 X23.6607 Y6.7799 
G01 X23.5439 Y6.8967 
G01 X23.4102 Y6.9939 
G01 X23.2630 Y7.0689 
G01 X23.1058 Y7.1199 
G01 X22.9426 Y7.1458 
G01 X20.8978 Y7.1458 
G01 X20.7346 Y7.1199 
G01 X20.5774 Y7.0689 
G01 X20.4302 Y6.9939 
G01 X20.2965 Y6.8967 
G01 X20.1797 Y6.7799 
G01 X20.0825 Y6.6462 
G01 X20.0075 Y6.4990 
G01 X19.9565 Y6.3418 
G01 X19.9430 Y6.2568 
G01 X18.2075 Y6.2568 
G01 X18.2075 Y6.4989 
G01 X18.1908 Y6.5393 
G01 X18.1598 Y6.5702 
G01 X18.1194 Y6.5870 
G01 X17.4406 Y6.5870 
G01 X17.4002 Y6.5702 
G01 X17.3692 Y6.5393 
G01 X17.3525 Y6.4989 
G01 X17.3525 Y6.0536 
G01 X17.1915 Y6.0536 
G01 X17.1915 Y6.4989 
G01 X17.1747 Y6.5393 
G01 X17.1438 Y6.5702 
G01 X17.1034 Y6.5870 
G01 X16.4246 Y6.5870 
G01 X16.3842 Y6.5702 
G01 X16.3532 Y6.5393 
G01 X16.3365 Y6.4989 
G01 X16.3365 Y6.2568 
G01 X15.6989 Y6.2568 
G01 X15.6299 Y6.3922 
G01 X15.5327 Y6.5259 
G01 X15.4159 Y6.6427 
G01 X15.2822 Y6.7399 
G01 X15.1350 Y6.8149 
G01 X14.9778 Y6.8659 
G01 X14.8146 Y6.8918 
G01 X14.6494 Y6.8918 
G01 X14.4862 Y6.8659 
G01 X14.3290 Y6.8149 
G01 X14.1818 Y6.7399 
G01 X14.0481 Y6.6427 
G01 X13.9313 Y6.5259 
G01 X13.8341 Y6.3922 
G01 X13.7591 Y6.2450 
G01 X13.7081 Y6.0878 
G01 X13.6822 Y5.9246 
G01 X13.6822 Y5.7594 
G01 X13.7081 Y5.5962 
G01 X13.7591 Y5.4390 
G01 X13.8341 Y5.2918 
G01 X13.9313 Y5.1581 
G00 Z0.7000 
G00 X15.2571 Y7.2056 
G01 Z-0.1100 F254.00 
G01 X15.3225 Y7.1554 F508.00 
G01 X15.5474 Y7.0623 
G01 X15.6857 Y6.9239 
G01 X15.6953 Y6.9143 
G01 X15.7440 Y6.8656 
G01 X15.7622 Y6.8551 
G01 X15.8154 Y6.8244 
G01 X15.8270 Y6.8213 
G01 X15.8950 Y6.8031 
G01 X15.9775 Y6.8031 
G01 X16.0572 Y6.8244 
G01 X16.0931 Y6.8452 
G01 X16.1286 Y6.8656 
G01 X16.1635 Y6.9005 
G01 X16.3471 Y6.9766 
G01 X17.1809 Y6.9766 
G01 X17.1902 Y6.9727 
G01 X17.2211 Y6.9687 
G01 X17.2720 Y6.9620 
G01 X17.3221 Y6.9685 
G01 X17.3538 Y6.9727 
G01 X17.3631 Y6.9766 
G01 X18.1969 Y6.9766 
G01 X18.3805 Y6.9005 
G01 X18.5721 Y6.7090 
G01 X18.6435 Y6.6677 
G01 X18.7231 Y6.6464 
G01 X19.4206 Y6.6464 
G01 X19.4411 Y6.6437 
G01 X19.4616 Y6.6464 
G01 X19.4823 Y6.6464 
G01 X19.5023 Y6.6518 
G01 X19.5229 Y6.6545 
G01 X19.5420 Y6.6624 
G01 X19.5620 Y6.6677 
G01 X19.5799 Y6.6781 
G01 X19.5991 Y6.6860 
G01 X19.6155 Y6.6986 
G01 X19.6334 Y6.7090 
G01 X19.6480 Y6.7236 
G01 X19.6645 Y6.7362 
G01 X19.6771 Y6.7527 
G01 X19.6917 Y6.7673 
G01 X19.7021 Y6.7852 
G01 X19.7147 Y6.8016 
G01 X19.7226 Y6.8208 
G01 X19.7330 Y6.8387 
G01 X19.7383 Y6.8587 
G01 X19.7601 Y6.9113 
G01 X19.9717 Y7.1229 
G01 X20.0129 Y7.1943 
G01 X20.0343 Y7.2740 
G01 X20.0343 Y7.3564 
G01 X20.0129 Y7.4361 
G01 X19.9981 Y7.4617 
G01 X19.9717 Y7.5075 
G01 X19.9134 Y7.5658 
G01 X19.8419 Y7.6071 
G01 X19.7623 Y7.6284 
G01 X19.6116 Y7.6284 
G01 X19.2412 Y7.7818 
G01 X18.9578 Y8.0652 
G01 X18.8471 Y8.3324 
G01 X18.8410 Y8.3472 
G01 X18.8156 Y8.4086 
G01 X18.7654 Y8.4740 
G01 X18.6999 Y8.5242 
G01 X18.6238 Y8.5558 
G01 X18.5554 Y8.5648 
G01 X18.5420 Y8.5665 
G01 X18.4602 Y8.5558 
G01 X18.4162 Y8.5376 
G01 X18.3840 Y8.5242 
G01 X18.3186 Y8.4740 
G01 X18.2684 Y8.4086 
G01 X18.2440 Y8.3497 
G01 X18.2369 Y8.3324 
G01 X18.1262 Y8.0652 
G01 X17.8428 Y7.7818 
G01 X17.4724 Y7.6284 
G01 X17.0716 Y7.6284 
G01 X16.7012 Y7.7818 
G01 X16.4178 Y8.0652 
G01 X16.3071 Y8.3324 
G01 X16.3010 Y8.3472 
G01 X16.2756 Y8.4086 
G01 X16.2254 Y8.4740 
G01 X16.1599 Y8.5242 
G01 X16.0838 Y8.5558 
G01 X16.0154 Y8.5648 
G01 X16.0020 Y8.5665 
G01 X15.9202 Y8.5558 
G01 X15.8762 Y8.5376 
G01 X15.8440 Y8.5242 
G01 X15.7786 Y8.4740 
G01 X15.7284 Y8.4086 
G01 X15.7040 Y8.3497 
G01 X15.6969 Y8.3324 
G01 X15.5862 Y8.0652 
G01 X15.3028 Y7.7818 
G01 X15.2916 Y7.7772 
G01 X15.2526 Y7.7472 
G01 X15.2262 Y7.7270 
G01 X15.2068 Y7.7017 
G01 X15.1760 Y7.6616 
G01 X15.1686 Y7.6437 
G01 X15.1444 Y7.5854 
G01 X15.1409 Y7.5584 
G01 X15.1337 Y7.5036 
G01 X15.1406 Y7.4507 
G01 X15.1444 Y7.4219 
G01 X15.2069 Y7.2710 
G01 X15.2217 Y7.2517 
G01 X15.2571 Y7.2056 
G00 Z0.7000 
G00 X15.1673 Y11.7147 
G01 Z-0.1100 F254.00 
G01 X15.1982 Y11.7457 F508.00 
G01 X15.2150 Y11.7861 
G01 X15.2150 Y12.0178 
G01 X16.1540 Y12.0178 
G01 X16.1540 Y11.9468 
G01 X16.1717 Y11.8806 
G01 X16.2059 Y11.8214 
G01 X16.2544 Y11.7729 
G01 X16.3136 Y11.7387 
G01 X16.3798 Y11.7210 
G01 X17.1482 Y11.7210 
G01 X17.2144 Y11.7387 
G01 X17.2736 Y11.7729 
G01 X17.3221 Y11.8214 
G01 X17.3563 Y11.8806 
G01 X17.3740 Y11.9468 
G01 X17.3740 Y12.7152 
G01 X17.3563 Y12.7814 
G01 X17.3221 Y12.8406 
G01 X17.2736 Y12.8890 
G01 X17.2144 Y12.9233 
G01 X17.1482 Y12.9410 
G01 X16.3798 Y12.9410 
G01 X16.3136 Y12.9233 
G01 X16.2544 Y12.8890 
G01 X16.2059 Y12.8406 
G01 X16.1717 Y12.7814 
G01 X16.1540 Y12.7152 
G01 X16.1540 Y12.6442 
G01 X15.2150 Y12.6442 
G01 X15.2150 Y12.9299 
G01 X15.1982 Y12.9703 
G01 X15.1673 Y13.0013 
G01 X15.1269 Y13.0180 
G01 X14.0831 Y13.0180 
G01 X14.0427 Y13.0013 
G01 X14.0117 Y12.9703 
G01 X13.9950 Y12.9299 
G01 X13.9950 Y12.6442 
G01 X13.0560 Y12.6442 
G01 X13.0560 Y12.7152 
G01 X13.0383 Y12.7814 
G01 X13.0040 Y12.8406 
G01 X12.9556 Y12.8890 
G01 X12.8964 Y12.9233 
G01 X12.8302 Y12.9410 
G01 X12.0618 Y12.9410 
G01 X11.9956 Y12.9233 
G01 X11.9364 Y12.8890 
G01 X11.8879 Y12.8406 
G01 X11.8537 Y12.7814 
G01 X11.8360 Y12.7152 
G01 X11.8360 Y11.9468 
G01 X11.8537 Y11.8806 
G01 X11.8879 Y11.8214 
G01 X11.9364 Y11.7729 
G01 X11.9956 Y11.7387 
G01 X12.0618 Y11.7210 
G01 X12.8302 Y11.7210 
G01 X12.8964 Y11.7387 
G01 X12.9556 Y11.7729 
G01 X13.0040 Y11.8214 
G01 X13.0383 Y11.8806 
G01 X13.0560 Y11.9468 
G01 X13.0560 Y12.0178 
G01 X13.9950 Y12.0178 
G01 X13.9950 Y11.7861 
G01 X14.0117 Y11.7457 
G01 X14.0427 Y11.7147 
G01 X14.0831 Y11.6980 
G01 X15.1269 Y11.6980 
G01 X15.1673 Y11.7147 
G00 Z0.7000 
G00 X16.2059 Y13.5754 
G01 Z-0.1100 F254.00 
G01 X16.2544 Y13.5269 F508.00 
G01 X16.3136 Y13.4927 
G01 X16.3798 Y13.4750 
G01 X17.1482 Y13.4750 
G01 X17.2144 Y13.4927 
G01 X17.2736 Y13.5269 
G01 X17.3221 Y13.5754 
G01 X17.3563 Y13.6346 
G01 X17.3740 Y13.7008 
G01 X17.3740 Y13.9108 
G01 X18.3292 Y13.9108 
G01 X18.4089 Y13.9321 
G01 X18.4803 Y13.9734 
G01 X18.5386 Y14.0317 
G01 X19.9417 Y15.4348 
G01 X20.3247 Y15.4348 
G01 X20.4302 Y15.3581 
G01 X20.5774 Y15.2831 
G01 X20.7346 Y15.2320 
G01 X20.8978 Y15.2062 
G01 X22.9426 Y15.2062 
G01 X23.1058 Y15.2320 
G01 X23.2630 Y15.2831 
G01 X23.4102 Y15.3581 
G01 X23.5439 Y15.4553 
G01 X23.6607 Y15.5721 
G01 X23.7579 Y15.7058 
G01 X23.8329 Y15.8530 
G01 X23.8839 Y16.0102 
G01 X23.9098 Y16.1734 
G01 X23.9098 Y16.3386 
G01 X23.8839 Y16.5018 
G01 X23.8329 Y16.6590 
G01 X23.7579 Y16.8062 
G01 X23.6607 Y16.9399 
G01 X23.5439 Y17.0567 
G01 X23.4102 Y17.1539 
G01 X23.2630 Y17.2289 
G01 X23.1058 Y17.2799 
G01 X22.9426 Y17.3058 
G01 X20.8978 Y17.3058 
G01 X20.7346 Y17.2799 
G01 X20.5774 Y17.2289 
G01 X20.4302 Y17.1539 
G01 X20.2965 Y17.0567 
G01 X20.1797 Y16.9399 
G01 X20.0825 Y16.8062 
G01 X20.0075 Y16.6590 
G01 X19.9565 Y16.5018 
G01 X19.9306 Y16.3386 
G01 X19.9306 Y16.1734 
G01 X19.9484 Y16.0612 
G01 X19.7708 Y16.0612 
G01 X19.6911 Y16.0399 
G01 X19.6197 Y15.9986 
G01 X18.1583 Y14.5372 
G01 X17.3552 Y14.5372 
G01 X17.3221 Y14.5946 
G01 X17.2736 Y14.6431 
G01 X17.2144 Y14.6773 
G01 X17.1482 Y14.6950 
G01 X16.3798 Y14.6950 
G01 X16.3136 Y14.6773 
G01 X16.2544 Y14.6431 
G01 X16.2059 Y14.5946 
G01 X16.1717 Y14.5354 
G01 X16.1540 Y14.4692 
G01 X16.1540 Y13.7008 
G01 X16.1717 Y13.6346 
G01 X16.2059 Y13.5754 
G00 Z0.7000 
G00 X17.7144 Y13.4314 
G01 Z-0.1100 F254.00 
G01 X17.7019 Y13.4149 F508.00 
G01 X17.6872 Y13.4003 
G01 X17.6769 Y13.3824 
G01 X17.6642 Y13.3659 
G01 X17.6563 Y13.3468 
G01 X17.6460 Y13.3289 
G01 X17.6406 Y13.3089 
G01 X17.6327 Y13.2898 
G01 X17.6300 Y13.2692 
G01 X17.6246 Y13.2492 
G01 X17.6246 Y13.2285 
G01 X17.6219 Y13.2080 
G01 X17.6246 Y13.1875 
G01 X17.6246 Y13.1668 
G01 X17.6300 Y13.1468 
G01 X17.6327 Y13.1262 
G01 X17.6406 Y13.1071 
G01 X17.6460 Y13.0871 
G01 X17.6563 Y13.0692 
G01 X17.7636 Y12.8102 
G01 X17.7636 Y12.3604 
G01 X17.7849 Y12.2807 
G01 X17.8262 Y12.2093 
G01 X17.8845 Y12.1510 
G01 X17.9559 Y12.1098 
G01 X18.0356 Y12.0884 
G01 X18.1180 Y12.0884 
G01 X18.1977 Y12.1098 
G01 X18.2691 Y12.1510 
G01 X18.3274 Y12.2093 
G01 X19.4201 Y13.3020 
G01 X19.4784 Y13.3603 
G01 X19.5197 Y13.4317 
G01 X19.5410 Y13.5114 
G01 X19.5410 Y13.7682 
G01 X19.5322 Y13.8011 
G01 X19.5197 Y13.8479 
G01 X19.4886 Y13.9017 
G01 X19.4784 Y13.9193 
G01 X19.4201 Y13.9776 
G01 X19.3563 Y14.0144 
G01 X19.3487 Y14.0188 
G01 X19.3126 Y14.0285 
G01 X19.2690 Y14.0402 
G01 X19.1866 Y14.0402 
G01 X19.1536 Y14.0313 
G01 X19.1069 Y14.0188 
G01 X19.0531 Y13.9877 
G01 X19.0355 Y13.9776 
G01 X18.8987 Y13.8408 
G01 X18.6861 Y13.6282 
G01 X18.4278 Y13.5212 
G01 X17.9583 Y13.5212 
G01 X17.9378 Y13.5239 
G01 X17.9173 Y13.5212 
G01 X17.8966 Y13.5212 
G01 X17.8766 Y13.5158 
G01 X17.8561 Y13.5131 
G01 X17.8370 Y13.5052 
G01 X17.8169 Y13.4999 
G01 X17.7990 Y13.4895 
G01 X17.7799 Y13.4816 
G01 X17.7635 Y13.4690 
G01 X17.7455 Y13.4586 
G01 X17.7309 Y13.4440 
G01 X17.7144 Y13.4314 
G00 Z0.7000 
G00 X12.9556 Y13.5269 
G01 Z-0.1100 F254.00 
G01 X13.0040 Y13.5754 F508.00 
G01 X13.0383 Y13.6346 
G01 X13.0560 Y13.7008 
G01 X13.0560 Y14.4692 
G01 X13.0383 Y14.5354 
G01 X13.0046 Y14.5937 
G01 X14.4746 Y16.0637 
G01 X14.5159 Y16.1351 
G01 X14.5372 Y16.2148 
G01 X14.5372 Y16.2972 
G01 X14.5372 Y18.9283 
G01 X17.1718 Y21.5629 
G01 X17.2716 Y21.5215 
G01 X17.4401 Y21.4880 
G01 X17.6119 Y21.4880 
G01 X17.7804 Y21.5215 
G01 X17.9390 Y21.5872 
G01 X18.0819 Y21.6827 
G01 X18.2033 Y21.8041 
G01 X18.2988 Y21.9470 
G01 X18.3645 Y22.1056 
G01 X18.3980 Y22.2741 
G01 X18.3980 Y22.4459 
G01 X18.3645 Y22.6144 
G01 X18.2988 Y22.7730 
G01 X18.2033 Y22.9159 
G01 X18.0819 Y23.0373 
G01 X17.9390 Y23.1328 
G01 X17.7804 Y23.1985 
G01 X17.6119 Y23.2320 
G01 X17.4401 Y23.2320 
G01 X17.2716 Y23.1985 
G01 X17.1130 Y23.1328 
G01 X16.9701 Y23.0373 
G01 X16.8487 Y22.9159 
G01 X16.7532 Y22.7730 
G01 X16.6875 Y22.6144 
G01 X16.6540 Y22.4459 
G01 X16.6540 Y22.2741 
G01 X16.6875 Y22.1056 
G01 X16.7289 Y22.0058 
G01 X13.9734 Y19.2503 
G01 X13.9321 Y19.1789 
G01 X13.9108 Y19.0992 
G01 X13.9108 Y16.3857 
G01 X12.2201 Y14.6950 
G01 X12.0618 Y14.6950 
G01 X11.9956 Y14.6773 
G01 X11.9364 Y14.6431 
G01 X11.8879 Y14.5946 
G01 X11.8537 Y14.5354 
G01 X11.8360 Y14.4692 
G01 X11.8360 Y13.7008 
G01 X11.8537 Y13.6346 
G01 X11.8879 Y13.5754 
G01 X11.9364 Y13.5269 
G01 X11.9956 Y13.4927 
G01 X12.0618 Y13.4750 
G01 X12.8302 Y13.4750 
G01 X12.8964 Y13.4927 
G01 X12.9556 Y13.5269 
G00 Z0.7000 
G00 X10.7277 Y13.4655 
G01 Z-0.1100 F254.00 
G01 X10.4895 Y13.7036 F508.00 
G01 X10.4164 Y13.7339 
G01 X9.9729 Y13.7339 
G01 X9.8998 Y13.7036 
G01 X9.7176 Y13.5215 
G01 X9.6617 Y13.4655 
G01 X9.6314 Y13.3924 
G01 X9.6314 Y13.1311 
G01 X9.6617 Y13.0580 
G01 X9.8439 Y12.8758 
G01 X9.8998 Y12.8198 
G01 X9.9729 Y12.7896 
G01 X10.2945 Y12.7896 
G01 X10.3602 Y12.7239 
G01 X10.3602 Y12.7065 
G01 X10.2945 Y12.6408 
G01 X10.0949 Y12.6408 
G01 X9.9430 Y12.7927 
G01 X9.8699 Y12.8230 
G01 X9.7907 Y12.8230 
G01 X9.7176 Y12.7927 
G01 X9.6617 Y12.7368 
G01 X9.6314 Y12.6637 
G01 X9.6314 Y12.5845 
G01 X9.6617 Y12.5114 
G01 X9.8998 Y12.2733 
G01 X9.9729 Y12.2430 
G01 X10.4164 Y12.2430 
G01 X10.4895 Y12.2733 
G01 X10.5455 Y12.3292 
G01 X10.7277 Y12.5114 
G01 X10.7579 Y12.5845 
G01 X10.7579 Y12.8458 
G01 X10.7277 Y12.9189 
G01 X10.4895 Y13.1571 
G01 X10.4164 Y13.1874 
G01 X10.0949 Y13.1874 
G01 X10.0292 Y13.2530 
G01 X10.0292 Y13.2705 
G01 X10.0949 Y13.3361 
G01 X10.2945 Y13.3361 
G01 X10.4464 Y13.1842 
G01 X10.5195 Y13.1539 
G01 X10.5986 Y13.1539 
G01 X10.6717 Y13.1842 
G01 X10.7277 Y13.2402 
G01 X10.7579 Y13.3133 
G01 X10.7579 Y13.3924 
G01 X10.7277 Y13.4655 
G00 Z0.7000 
G00 X9.5583 Y13.4655 
G01 Z-0.1100 F254.00 
G01 X9.5023 Y13.5215 F508.00 
G01 X9.3201 Y13.7036 
G01 X9.2470 Y13.7339 
G01 X8.6213 Y13.7339 
G01 X8.5482 Y13.7036 
G01 X8.4923 Y13.6477 
G01 X8.4620 Y13.5746 
G01 X8.4620 Y12.7667 
G01 X8.4620 Y12.4023 
G01 X8.4923 Y12.3292 
G01 X8.5482 Y12.2733 
G01 X8.6213 Y12.2430 
G01 X8.7005 Y12.2430 
G01 X8.7736 Y12.2733 
G01 X8.8295 Y12.3292 
G01 X8.8598 Y12.4023 
G01 X8.8598 Y12.6074 
G01 X8.9429 Y12.6074 
G01 X9.2770 Y12.2733 
G01 X9.3501 Y12.2430 
G01 X9.4292 Y12.2430 
G01 X9.5023 Y12.2733 
G01 X9.5583 Y12.3292 
G01 X9.5885 Y12.4023 
G01 X9.5885 Y12.4815 
G01 X9.5583 Y12.5546 
G01 X9.3977 Y12.7152 
G01 X9.5583 Y12.8758 
G01 X9.5885 Y12.9489 
G01 X9.5885 Y13.3924 
G01 X9.5583 Y13.4655 
G00 Z0.7000 
G00 X9.1251 Y13.3361 
G01 Z-0.1100 F254.00 
G01 X9.1908 Y13.2705 F508.00 
G01 X9.1908 Y13.0709 
G01 X9.1251 Y13.0052 
G01 X8.8598 Y13.0052 
G01 X8.8598 Y13.3361 
G01 X9.1251 Y13.3361 
G00 Z0.7000 
G00 X11.2863 Y16.2152 
G01 Z-0.1100 F254.00 
G01 X11.3422 Y16.1593 F508.00 
G01 X11.4153 Y16.1290 
G01 X11.4945 Y16.1290 
G01 X11.5676 Y16.1593 
G01 X11.6235 Y16.2152 
G01 X11.6538 Y16.2883 
G01 X11.6538 Y16.9408 
G01 X11.7066 Y16.8880 
G01 X11.7797 Y16.8578 
G01 X11.8588 Y16.8578 
G01 X11.9319 Y16.8880 
G01 X11.9848 Y16.9409 
G01 X11.9848 Y16.2883 
G01 X12.0150 Y16.2152 
G01 X12.0710 Y16.1593 
G01 X12.1441 Y16.1290 
G01 X12.2232 Y16.1290 
G01 X12.2963 Y16.1593 
G01 X12.3523 Y16.2152 
G01 X12.3826 Y16.2883 
G01 X12.3826 Y17.4606 
G01 X12.3523 Y17.5337 
G01 X12.2963 Y17.5896 
G01 X12.2232 Y17.6199 
G01 X12.1441 Y17.6199 
G01 X12.0710 Y17.5896 
G01 X12.0150 Y17.5337 
G01 X11.8193 Y17.3379 
G01 X11.6235 Y17.5337 
G01 X11.5740 Y17.5832 
G01 X11.5676 Y17.5896 
G01 X11.4945 Y17.6199 
G01 X11.4153 Y17.6199 
G01 X11.3422 Y17.5896 
G01 X11.2863 Y17.5337 
G01 X11.2560 Y17.4606 
G01 X11.2560 Y17.3815 
G01 X11.2560 Y16.2883 
G01 X11.2863 Y16.2152 
G00 Z0.7000 
G00 X12.4557 Y16.3974 
G01 Z-0.1100 F254.00 
G01 X12.6379 Y16.2152 F508.00 
G01 X12.6938 Y16.1593 
G01 X12.7669 Y16.1290 
G01 X13.2104 Y16.1290 
G01 X13.2835 Y16.1593 
G01 X13.4657 Y16.3415 
G01 X13.5217 Y16.3974 
G01 X13.5519 Y16.4705 
G01 X13.5519 Y17.2784 
G01 X13.5217 Y17.3515 
G01 X13.2835 Y17.5896 
G01 X13.2104 Y17.6199 
G01 X13.1313 Y17.6199 
G01 X12.8460 Y17.6199 
G01 X12.7669 Y17.6199 
G01 X12.6938 Y17.5896 
G01 X12.5116 Y17.4075 
G01 X12.4557 Y17.3515 
G01 X12.4254 Y17.2784 
G01 X12.4254 Y16.4705 
G01 X12.4557 Y16.3974 
G00 Z0.7000 
G00 X12.8889 Y16.5268 
G01 Z-0.1100 F254.00 
G01 X12.8232 Y16.5925 F508.00 
G01 X12.8232 Y17.1565 
G01 X12.8889 Y17.2221 
G01 X13.0885 Y17.2221 
G01 X13.1541 Y17.1565 
G01 X13.1541 Y16.5925 
G01 X13.0885 Y16.5268 
G01 X12.8889 Y16.5268 
G00 Z0.7000 
G00 X12.7370 Y17.7593 
G01 Z-0.1100 F254.00 
G01 X12.7929 Y17.8152 F508.00 
G01 X12.8232 Y17.8883 
G01 X12.8232 Y18.1765 
G01 X13.2404 Y17.7593 
G01 X13.3135 Y17.7290 
G01 X13.3926 Y17.7290 
G01 X13.4657 Y17.7593 
G01 X13.5217 Y17.8152 
G01 X13.5519 Y17.8883 
G01 X13.5519 Y17.9675 
G01 X13.5217 Y18.0406 
G01 X13.0878 Y18.4745 
G01 X13.5217 Y18.9084 
G01 X13.5519 Y18.9815 
G01 X13.5519 Y19.0606 
G01 X13.5217 Y19.1337 
G01 X13.4657 Y19.1896 
G01 X13.3926 Y19.2199 
G01 X13.3135 Y19.2199 
G01 X13.2404 Y19.1896 
G01 X12.8232 Y18.7725 
G01 X12.8232 Y19.0606 
G01 X12.7929 Y19.1337 
G01 X12.7370 Y19.1896 
G01 X12.6639 Y19.2199 
G01 X12.5847 Y19.2199 
G01 X12.5116 Y19.1896 
G01 X12.4557 Y19.1337 
G01 X12.4254 Y19.0606 
G01 X12.4254 Y17.8883 
G01 X12.4557 Y17.8152 
G01 X12.5116 Y17.7593 
G01 X12.5847 Y17.7290 
G01 X12.6639 Y17.7290 
G01 X12.7370 Y17.7593 
G00 Z0.7000 
G00 X12.1141 Y17.7593 
G01 Z-0.1100 F254.00 
G01 X12.3523 Y17.9974 F508.00 
G01 X12.3826 Y18.0705 
G01 X12.3826 Y18.1497 
G01 X12.3523 Y18.2228 
G01 X12.2963 Y18.2787 
G01 X12.2232 Y18.3090 
G01 X12.1441 Y18.3090 
G01 X12.0710 Y18.2787 
G01 X11.9191 Y18.1268 
G01 X11.7195 Y18.1268 
G01 X11.6538 Y18.1925 
G01 X11.6538 Y18.7565 
G01 X11.7195 Y18.8221 
G01 X11.9191 Y18.8221 
G01 X12.0710 Y18.6702 
G01 X12.1441 Y18.6399 
G01 X12.2232 Y18.6399 
G01 X12.2963 Y18.6702 
G01 X12.3523 Y18.7262 
G01 X12.3826 Y18.7993 
G01 X12.3826 Y18.8784 
G01 X12.3523 Y18.9515 
G01 X12.1701 Y19.1337 
G01 X12.1141 Y19.1896 
G01 X12.0410 Y19.2199 
G01 X11.5975 Y19.2199 
G01 X11.5244 Y19.1896 
G01 X11.3422 Y19.0075 
G01 X11.2863 Y18.9515 
G01 X11.2560 Y18.8784 
G01 X11.2560 Y18.0705 
G01 X11.2863 Y17.9974 
G01 X11.4685 Y17.8152 
G01 X11.5244 Y17.7593 
G01 X11.5975 Y17.7290 
G01 X12.0410 Y17.7290 
G01 X12.1141 Y17.7593 
G00 Z0.7000 
G00 X12.1441 Y19.3290 
G01 Z-0.1100 F254.00 
G01 X12.2232 Y19.3290 F508.00 
G01 X12.2963 Y19.3593 
G01 X12.3523 Y19.4152 
G01 X12.3826 Y19.4883 
G01 X12.3826 Y20.6606 
G01 X12.3523 Y20.7337 
G01 X12.2963 Y20.7896 
G01 X12.2232 Y20.8199 
G01 X12.1441 Y20.8199 
G01 X12.0710 Y20.7896 
G01 X12.0150 Y20.7337 
G01 X11.8193 Y20.5379 
G01 X11.6235 Y20.7337 
G01 X11.5740 Y20.7832 
G01 X11.5676 Y20.7896 
G01 X11.4945 Y20.8199 
G01 X11.4153 Y20.8199 
G01 X11.3422 Y20.7896 
G01 X11.2863 Y20.7337 
G01 X11.2560 Y20.6606 
G01 X11.2560 Y20.5815 
G01 X11.2560 Y19.4883 
G01 X11.2863 Y19.4152 
G01 X11.3422 Y19.3593 
G01 X11.4153 Y19.3290 
G01 X11.4945 Y19.3290 
G01 X11.5676 Y19.3593 
G01 X11.6235 Y19.4152 
G01 X11.6538 Y19.4883 
G01 X11.6538 Y20.1408 
G01 X11.7066 Y20.0880 
G01 X11.7797 Y20.0578 
G01 X11.8588 Y20.0578 
G01 X11.9319 Y20.0880 
G01 X11.9848 Y20.1409 
G01 X11.9848 Y19.4883 
G01 X12.0150 Y19.4152 
G01 X12.0710 Y19.3593 
G01 X12.1441 Y19.3290 
G00 Z0.7000 
G00 X12.4557 Y19.4152 
G01 Z-0.1100 F254.00 
G01 X12.5116 Y19.3593 F508.00 
G01 X12.5847 Y19.3290 
G01 X13.0282 Y19.3290 
G01 X13.1013 Y19.3593 
G01 X13.1573 Y19.4152 
G01 X13.1876 Y19.4883 
G01 X13.1876 Y19.5675 
G01 X13.1573 Y19.6406 
G01 X13.1013 Y19.6965 
G01 X13.0282 Y19.7268 
G01 X13.0054 Y19.7268 
G01 X13.0054 Y20.4221 
G01 X13.0282 Y20.4221 
G01 X13.1013 Y20.4524 
G01 X13.1573 Y20.5084 
G01 X13.1876 Y20.5815 
G01 X13.1876 Y20.6606 
G01 X13.1573 Y20.7337 
G01 X13.1013 Y20.7896 
G01 X13.0282 Y20.8199 
G01 X12.5847 Y20.8199 
G01 X12.5116 Y20.7896 
G01 X12.4557 Y20.7337 
G01 X12.4254 Y20.6606 
G01 X12.4254 Y20.5815 
G01 X12.4557 Y20.5084 
G01 X12.5116 Y20.4524 
G01 X12.5847 Y20.4221 
G01 X12.6076 Y20.4221 
G01 X12.6076 Y19.7268 
G01 X12.5847 Y19.7268 
G01 X12.5116 Y19.6965 
G01 X12.4557 Y19.6406 
G01 X12.4254 Y19.5675 
G01 X12.4254 Y19.4883 
G01 X12.4557 Y19.4152 
G00 Z0.7000 
G00 X12.5319 Y21.4880 
G01 Z-0.1100 F254.00 
G01 X12.7004 Y21.5215 F508.00 
G01 X12.8590 Y21.5872 
G01 X13.0019 Y21.6827 
G01 X13.1233 Y21.8041 
G01 X13.2188 Y21.9470 
G01 X13.2845 Y22.1056 
G01 X13.3180 Y22.2741 
G01 X13.3180 Y22.4459 
G01 X13.2845 Y22.6144 
G01 X13.2188 Y22.7730 
G01 X13.1233 Y22.9159 
G01 X13.0019 Y23.0373 
G01 X12.8590 Y23.1328 
G01 X12.7004 Y23.1985 
G01 X12.5319 Y23.2320 
G01 X12.3601 Y23.2320 
G01 X12.1916 Y23.1985 
G01 X12.0329 Y23.1328 
G01 X11.8901 Y23.0373 
G01 X11.7687 Y22.9159 
G01 X11.6732 Y22.7730 
G01 X11.6075 Y22.6144 
G01 X11.5740 Y22.4459 
G01 X11.5740 Y22.2741 
G01 X11.6075 Y22.1056 
G01 X11.6732 Y21.9470 
G01 X11.7687 Y21.8041 
G01 X11.8901 Y21.6827 
G01 X12.0329 Y21.5872 
G01 X12.1916 Y21.5215 
G01 X12.3601 Y21.4880 
G01 X12.5319 Y21.4880 
G00 Z0.7000 
G00 X14.3087 Y21.8041 
G01 Z-0.1100 F254.00 
G01 X14.4301 Y21.6827 F508.00 
G01 X14.5730 Y21.5872 
G01 X14.7316 Y21.5215 
G01 X14.9001 Y21.4880 
G01 X15.0719 Y21.4880 
G01 X15.2404 Y21.5215 
G01 X15.3990 Y21.5872 
G01 X15.5419 Y21.6827 
G01 X15.6633 Y21.8041 
G01 X15.7588 Y21.9470 
G01 X15.8245 Y22.1056 
G01 X15.8580 Y22.2741 
G01 X15.8580 Y22.4459 
G01 X15.8245 Y22.6144 
G01 X15.7588 Y22.7730 
G01 X15.6633 Y22.9159 
G01 X15.5419 Y23.0373 
G01 X15.3990 Y23.1328 
G01 X15.2404 Y23.1985 
G01 X15.0719 Y23.2320 
G01 X14.9001 Y23.2320 
G01 X14.7316 Y23.1985 
G01 X14.5730 Y23.1328 
G01 X14.4301 Y23.0373 
G01 X14.3087 Y22.9159 
G01 X14.2132 Y22.7730 
G01 X14.1475 Y22.6144 
G01 X14.1140 Y22.4459 
G01 X14.1140 Y22.2741 
G01 X14.1475 Y22.1056 
G01 X14.2132 Y21.9470 
G01 X14.3087 Y21.8041 
G00 Z0.7000 
G00 X10.5833 Y21.8041 
G01 Z-0.1100 F254.00 
G01 X10.6788 Y21.9470 F508.00 
G01 X10.7445 Y22.1056 
G01 X10.7780 Y22.2741 
G01 X10.7780 Y22.4459 
G01 X10.7445 Y22.6144 
G01 X10.6788 Y22.7730 
G01 X10.5833 Y22.9159 
G01 X10.4619 Y23.0373 
G01 X10.3190 Y23.1328 
G01 X10.1604 Y23.1985 
G01 X9.9919 Y23.2320 
G01 X9.8201 Y23.2320 
G01 X9.6516 Y23.1985 
G01 X9.4930 Y23.1328 
G01 X9.3501 Y23.0373 
G01 X9.2287 Y22.9159 
G01 X9.1332 Y22.7730 
G01 X9.0675 Y22.6144 
G01 X9.0340 Y22.4459 
G01 X9.0340 Y22.2741 
G01 X9.0675 Y22.1056 
G01 X9.1332 Y21.9470 
G01 X9.2287 Y21.8041 
G01 X9.3501 Y21.6827 
G01 X9.4930 Y21.5872 
G01 X9.6516 Y21.5215 
G01 X9.8201 Y21.4880 
G01 X9.9919 Y21.4880 
G01 X10.1604 Y21.5215 
G01 X10.3190 Y21.5872 
G01 X10.4619 Y21.6827 
G01 X10.5833 Y21.8041 
G00 Z0.7000 
G00 X8.0769 Y21.7390 
G01 Z-0.1100 F254.00 
G01 X8.0019 Y21.8862 F508.00 
G01 X7.9047 Y22.0199 
G01 X7.7879 Y22.1367 
G01 X7.6542 Y22.2339 
G01 X7.5070 Y22.3089 
G01 X7.3498 Y22.3599 
G01 X7.1866 Y22.3858 
G01 X5.1418 Y22.3858 
G01 X4.9786 Y22.3599 
G01 X4.8214 Y22.3089 
G01 X4.6742 Y22.2339 
G01 X4.5405 Y22.1367 
G01 X4.4237 Y22.0199 
G01 X4.3265 Y21.8862 
G01 X4.2575 Y21.7508 
G01 X3.5886 Y21.7508 
G01 X3.5669 Y21.7542 
G01 X3.5343 Y21.7508 
G01 X3.5014 Y21.7508 
G01 X3.4802 Y21.7451 
G01 X3.4583 Y21.7428 
G01 X3.4276 Y21.7310 
G01 X3.3959 Y21.7225 
G01 X3.3769 Y21.7115 
G01 X3.3564 Y21.7037 
G01 X3.3298 Y21.6843 
G01 X3.3013 Y21.6679 
G01 X3.2858 Y21.6524 
G01 X3.2680 Y21.6395 
G01 X3.2473 Y21.6139 
G01 X3.2241 Y21.5907 
G01 X3.2131 Y21.5717 
G01 X1.0853 Y18.9439 
G01 X1.0153 Y18.8739 
G01 X0.9381 Y18.7967 
G01 X0.8835 Y18.7021 
G01 X0.8552 Y18.5966 
G01 X0.8552 Y13.9640 
G01 X0.0641 Y13.9640 
G01 X0.0237 Y13.9473 
G01 X-0.0073 Y13.9163 
G01 X-0.0240 Y13.8759 
G01 X-0.0240 Y12.0321 
G01 X-0.0073 Y11.9917 
G01 X0.0237 Y11.9607 
G01 X0.0641 Y11.9440 
G01 X1.7079 Y11.9440 
G01 X1.7483 Y11.9607 
G01 X1.7792 Y11.9917 
G01 X1.7960 Y12.0321 
G01 X1.7960 Y13.8759 
G01 X1.7792 Y13.9163 
G01 X1.7483 Y13.9473 
G01 X1.7079 Y13.9640 
G01 X1.6848 Y13.9640 
G01 X1.6848 Y18.3660 
G01 X1.7027 Y18.3881 
G01 X1.7259 Y18.4113 
G01 X1.7369 Y18.4303 
G01 X3.7539 Y20.9212 
G01 X4.2575 Y20.9212 
G01 X4.3265 Y20.7858 
G01 X4.4237 Y20.6521 
G01 X4.5405 Y20.5353 
G01 X4.6742 Y20.4381 
G01 X4.8214 Y20.3631 
G01 X4.9786 Y20.3120 
G01 X5.1418 Y20.2862 
G01 X7.1866 Y20.2862 
G01 X7.3498 Y20.3120 
G01 X7.5070 Y20.3631 
G01 X7.6542 Y20.4381 
G01 X7.7879 Y20.5353 
G01 X7.9047 Y20.6521 
G01 X8.0019 Y20.7858 
G01 X8.0769 Y20.9330 
G01 X8.1279 Y21.0902 
G01 X8.1538 Y21.2534 
G01 X8.1538 Y21.4186 
G01 X8.1279 Y21.5818 
G01 X8.0769 Y21.7390 
G00 Z0.7000 
G00 X5.7725 Y19.8068 
G01 Z-0.1100 F254.00 
G01 X5.7561 Y19.8194 F508.00 
G01 X5.7415 Y19.8340 
G01 X5.7235 Y19.8444 
G01 X5.7071 Y19.8570 
G01 X5.6880 Y19.8649 
G01 X5.6700 Y19.8753 
G01 X5.6500 Y19.8806 
G01 X5.6309 Y19.8885 
G01 X5.6104 Y19.8912 
G01 X5.5904 Y19.8966 
G01 X5.5697 Y19.8966 
G01 X5.5492 Y19.8993 
G01 X5.5286 Y19.8966 
G01 X4.9381 Y19.8966 
G01 X4.4090 Y20.1157 
G01 X4.2270 Y20.2978 
G01 X4.2173 Y20.3112 
G01 X4.1980 Y20.3268 
G01 X4.1804 Y20.3443 
G01 X4.1661 Y20.3526 
G01 X4.1532 Y20.3631 
G01 X4.1305 Y20.3732 
G01 X4.1090 Y20.3856 
G01 X4.0930 Y20.3899 
G01 X4.0778 Y20.3966 
G01 X4.0533 Y20.4005 
G01 X4.0294 Y20.4069 
G01 X4.0128 Y20.4069 
G01 X3.9964 Y20.4095 
G01 X3.9717 Y20.4069 
G01 X3.9469 Y20.4069 
G01 X3.9309 Y20.4026 
G01 X3.9144 Y20.4009 
G01 X3.8912 Y20.3920 
G01 X3.8672 Y20.3856 
G01 X3.8529 Y20.3773 
G01 X3.8374 Y20.3713 
G01 X3.8173 Y20.3568 
G01 X3.7958 Y20.3443 
G01 X3.7841 Y20.3326 
G01 X3.7707 Y20.3229 
G01 X3.7551 Y20.3036 
G01 X3.7375 Y20.2860 
G01 X3.7292 Y20.2717 
G01 X2.1545 Y18.3270 
G01 X2.1370 Y18.3094 
G01 X2.1287 Y18.2951 
G01 X2.1182 Y18.2822 
G01 X2.1081 Y18.2595 
G01 X2.0957 Y18.2380 
G01 X2.0914 Y18.2220 
G01 X2.0847 Y18.2068 
G01 X2.0808 Y18.1823 
G01 X2.0744 Y18.1584 
G01 X2.0744 Y18.1418 
G01 X2.0718 Y18.1254 
G01 X2.0744 Y18.1007 
G01 X2.0744 Y16.9912 
G01 X2.0799 Y16.9708 
G01 X2.0957 Y16.9115 
G01 X2.1268 Y16.8577 
G01 X2.1370 Y16.8401 
G01 X2.1944 Y16.7827 
G01 X2.2460 Y16.7525 
G01 X2.2667 Y16.7406 
G01 X2.3028 Y16.7309 
G01 X2.3464 Y16.7192 
G01 X2.4288 Y16.7192 
G01 X2.4493 Y16.7247 
G01 X2.5085 Y16.7406 
G01 X2.5623 Y16.7717 
G01 X2.5799 Y16.7818 
G01 X2.6499 Y16.8518 
G01 X2.9082 Y16.9588 
G01 X3.8031 Y16.9588 
G01 X3.8827 Y16.9801 
G01 X3.9542 Y17.0214 
G01 X4.0125 Y17.0797 
G01 X4.4090 Y17.4763 
G01 X4.9381 Y17.6954 
G01 X5.5286 Y17.6954 
G01 X5.5492 Y17.6927 
G01 X5.5697 Y17.6954 
G01 X5.5904 Y17.6954 
G01 X5.6104 Y17.7008 
G01 X5.6309 Y17.7035 
G01 X5.6500 Y17.7114 
G01 X5.6700 Y17.7167 
G01 X5.6880 Y17.7271 
G01 X5.7071 Y17.7350 
G01 X5.7235 Y17.7476 
G01 X5.7415 Y17.7580 
G01 X5.7561 Y17.7726 
G01 X5.7725 Y17.7852 
G01 X5.7851 Y17.8017 
G01 X5.7998 Y17.8163 
G01 X5.8101 Y17.8342 
G01 X5.8227 Y17.8506 
G01 X5.8307 Y17.8698 
G01 X5.8410 Y17.8877 
G01 X5.8464 Y17.9077 
G01 X5.8543 Y17.9268 
G01 X5.8570 Y17.9474 
G01 X5.8624 Y17.9674 
G01 X5.8624 Y17.9881 
G01 X5.8651 Y18.0086 
G01 X5.8624 Y18.0291 
G01 X5.8624 Y18.0498 
G01 X5.8570 Y18.0698 
G01 X5.8543 Y18.0904 
G01 X5.8464 Y18.1095 
G01 X5.8410 Y18.1295 
G01 X5.8307 Y18.1474 
G01 X5.6806 Y18.5097 
G01 X5.6806 Y19.0823 
G01 X5.8307 Y19.4446 
G01 X5.8410 Y19.4625 
G01 X5.8464 Y19.4825 
G01 X5.8543 Y19.5016 
G01 X5.8570 Y19.5222 
G01 X5.8624 Y19.5422 
G01 X5.8624 Y19.5629 
G01 X5.8651 Y19.5834 
G01 X5.8624 Y19.6039 
G01 X5.8624 Y19.6246 
G01 X5.8570 Y19.6446 
G01 X5.8543 Y19.6652 
G01 X5.8464 Y19.6843 
G01 X5.8410 Y19.7043 
G01 X5.8307 Y19.7222 
G01 X5.8227 Y19.7414 
G01 X5.8101 Y19.7578 
G01 X5.7998 Y19.7757 
G01 X5.7851 Y19.7903 
G01 X5.7725 Y19.8068 
G00 Z0.7000 
G00 X5.2559 Y27.5013 
G01 Z-0.1100 F254.00 
G01 X5.3727 Y27.6181 F508.00 
G01 X5.4699 Y27.7518 
G01 X5.5449 Y27.8990 
G01 X5.5959 Y28.0562 
G01 X5.6218 Y28.2194 
G01 X5.6218 Y28.3846 
G01 X5.5959 Y28.5478 
G01 X5.5449 Y28.7050 
G01 X5.4699 Y28.8522 
G01 X5.3727 Y28.9859 
G01 X5.2559 Y29.1027 
G01 X5.1222 Y29.1999 
G01 X4.9750 Y29.2749 
G01 X4.8178 Y29.3259 
G01 X4.6546 Y29.3518 
G01 X4.4894 Y29.3518 
G01 X4.3262 Y29.3259 
G01 X4.1690 Y29.2749 
G01 X4.0218 Y29.1999 
G01 X3.8881 Y29.1027 
G01 X3.7713 Y28.9859 
G01 X3.6741 Y28.8522 
G01 X3.5991 Y28.7050 
G01 X3.5699 Y28.6152 
G01 X3.4317 Y28.6152 
G01 X2.8532 Y29.1937 
G01 X2.8532 Y31.4996 
G01 X3.5392 Y32.4143 
G01 X3.5526 Y32.4277 
G01 X3.5638 Y32.4471 
G01 X3.5773 Y32.4651 
G01 X3.5844 Y32.4827 
G01 X3.5939 Y32.4991 
G01 X3.5997 Y32.5208 
G01 X3.6080 Y32.5416 
G01 X3.6103 Y32.5604 
G01 X3.6152 Y32.5788 
G01 X3.6152 Y32.6012 
G01 X3.6179 Y32.6235 
G01 X3.6152 Y32.6423 
G01 X3.6152 Y36.9440 
G01 X4.5079 Y36.9440 
G01 X4.5483 Y36.9607 
G01 X4.5793 Y36.9917 
G01 X4.5960 Y37.0321 
G01 X4.5960 Y38.8759 
G01 X4.5793 Y38.9163 
G01 X4.5483 Y38.9472 
G01 X4.5079 Y38.9640 
G01 X2.8641 Y38.9640 
G01 X2.8237 Y38.9472 
G01 X2.7927 Y38.9163 
G01 X2.7760 Y38.8759 
G01 X2.7760 Y37.0321 
G01 X2.7927 Y36.9917 
G01 X2.8237 Y36.9607 
G01 X2.8641 Y36.9440 
G01 X2.9888 Y36.9440 
G01 X2.9888 Y32.7244 
G01 X2.3028 Y31.8097 
G01 X2.2894 Y31.7963 
G01 X2.2782 Y31.7769 
G01 X2.2647 Y31.7589 
G01 X2.2576 Y31.7413 
G01 X2.2481 Y31.7249 
G01 X2.2423 Y31.7032 
G01 X2.2340 Y31.6824 
G01 X2.2317 Y31.6636 
G01 X2.2268 Y31.6452 
G01 X2.2268 Y31.6228 
G01 X2.2241 Y31.6005 
G01 X2.2268 Y31.5817 
G01 X2.2268 Y29.0228 
G01 X2.2481 Y28.9431 
G01 X2.2894 Y28.8717 
G01 X3.0514 Y28.1097 
G01 X3.1097 Y28.0514 
G01 X3.1811 Y28.0101 
G01 X3.2608 Y27.9888 
G01 X3.5699 Y27.9888 
G01 X3.5991 Y27.8990 
G01 X3.6741 Y27.7518 
G01 X3.7713 Y27.6181 
G01 X3.8881 Y27.5013 
G01 X4.0218 Y27.4041 
G01 X4.1690 Y27.3291 
G01 X4.3262 Y27.2781 
G01 X4.4894 Y27.2522 
G01 X4.6546 Y27.2522 
G01 X4.8178 Y27.2781 
G01 X4.9750 Y27.3291 
G01 X5.1222 Y27.4041 
G01 X5.2559 Y27.5013 
G00 Z0.7000 
G00 X6.3113 Y27.6181 
G01 Z-0.1100 F254.00 
G01 X6.4281 Y27.5013 F508.00 
G01 X6.5618 Y27.4041 
G01 X6.7090 Y27.3291 
G01 X6.8662 Y27.2781 
G01 X7.0294 Y27.2522 
G01 X7.1946 Y27.2522 
G01 X7.3578 Y27.2781 
G01 X7.5150 Y27.3291 
G01 X7.6622 Y27.4041 
G01 X7.7959 Y27.5013 
G01 X7.9127 Y27.6181 
G01 X8.0099 Y27.7518 
G01 X8.0849 Y27.8990 
G01 X8.1359 Y28.0562 
G01 X8.1618 Y28.2194 
G01 X8.1618 Y28.3846 
G01 X8.1359 Y28.5478 
G01 X8.0849 Y28.7050 
G01 X8.0099 Y28.8522 
G01 X7.9127 Y28.9859 
G01 X7.7959 Y29.1027 
G01 X7.6622 Y29.1999 
G01 X7.5150 Y29.2749 
G01 X7.3578 Y29.3259 
G01 X7.1946 Y29.3518 
G01 X7.0294 Y29.3518 
G01 X6.8662 Y29.3259 
G01 X6.7090 Y29.2749 
G01 X6.6249 Y29.2320 
G01 X6.0470 Y29.8099 
G01 X6.0470 Y32.1281 
G01 X6.0926 Y32.1737 
G01 X6.1339 Y32.2451 
G01 X6.1552 Y32.3248 
G01 X6.1552 Y34.6932 
G01 X6.1339 Y34.7729 
G01 X6.0926 Y34.8443 
G01 X6.0343 Y34.9026 
G01 X5.6472 Y35.2897 
G01 X5.6472 Y39.4560 
G01 X5.9722 Y39.7810 
G01 X8.1441 Y39.7810 
G01 X8.1897 Y39.7354 
G01 X8.2611 Y39.6941 
G01 X8.3408 Y39.6728 
G01 X8.9312 Y39.6728 
G01 X9.0109 Y39.6941 
G01 X9.0823 Y39.7354 
G01 X9.1406 Y39.7937 
G01 X9.8443 Y40.4974 
G01 X9.9026 Y40.5557 
G01 X9.9439 Y40.6271 
G01 X9.9652 Y40.7068 
G01 X9.9652 Y43.0752 
G01 X9.9439 Y43.1549 
G01 X9.9026 Y43.2263 
G01 X9.8914 Y43.2375 
G01 X9.8975 Y43.2458 
G01 X9.9725 Y43.3930 
G01 X10.0235 Y43.5502 
G01 X10.0494 Y43.7134 
G01 X10.0494 Y43.8786 
G01 X10.0235 Y44.0418 
G01 X9.9725 Y44.1990 
G01 X9.8975 Y44.3462 
G01 X9.8003 Y44.4799 
G01 X9.6835 Y44.5967 
G01 X9.5498 Y44.6939 
G01 X9.4026 Y44.7689 
G01 X9.2454 Y44.8199 
G01 X9.0822 Y44.8458 
G01 X7.0374 Y44.8458 
G01 X6.8742 Y44.8199 
G01 X6.7170 Y44.7689 
G01 X6.5698 Y44.6939 
G01 X6.4361 Y44.5967 
G01 X6.3193 Y44.4799 
G01 X6.2221 Y44.3462 
G01 X6.1471 Y44.1990 
G01 X6.0960 Y44.0418 
G01 X6.0702 Y43.8786 
G01 X6.0702 Y43.7134 
G01 X6.0960 Y43.5502 
G01 X6.1471 Y43.3930 
G01 X6.2221 Y43.2458 
G01 X6.3193 Y43.1121 
G01 X6.4361 Y42.9953 
G01 X6.5698 Y42.8981 
G01 X6.7170 Y42.8231 
G01 X6.8742 Y42.7721 
G01 X7.0374 Y42.7462 
G01 X9.0822 Y42.7462 
G01 X9.2454 Y42.7721 
G01 X9.3388 Y42.8024 
G01 X9.3388 Y40.8777 
G01 X8.7603 Y40.2992 
G01 X8.3408 Y40.2992 
G01 X8.2611 Y40.2779 
G01 X8.1897 Y40.2366 
G01 X8.1441 Y40.1910 
G01 X5.9664 Y40.1910 
G01 X5.9297 Y40.2062 
G01 X7.1866 Y40.2062 
G01 X7.3498 Y40.2321 
G01 X7.5070 Y40.2831 
G01 X7.6542 Y40.3581 
G01 X7.7879 Y40.4553 
G01 X7.9047 Y40.5721 
G01 X8.0019 Y40.7058 
G01 X8.0769 Y40.8530 
G01 X8.1279 Y41.0102 
G01 X8.1538 Y41.1734 
G01 X8.1538 Y41.3386 
G01 X8.1279 Y41.5018 
G01 X8.0769 Y41.6590 
G01 X8.0019 Y41.8062 
G01 X7.9047 Y41.9399 
G01 X7.7879 Y42.0567 
G01 X7.6542 Y42.1539 
G01 X7.5070 Y42.2289 
G01 X7.3498 Y42.2799 
G01 X7.1866 Y42.3058 
G01 X5.1418 Y42.3058 
G01 X4.9786 Y42.2799 
G01 X4.8214 Y42.2289 
G01 X4.6742 Y42.1539 
G01 X4.5405 Y42.0567 
G01 X4.4237 Y41.9399 
G01 X4.3265 Y41.8062 
G01 X4.2515 Y41.6590 
G01 X4.2223 Y41.5692 
G01 X3.0068 Y41.5692 
G01 X2.9271 Y41.5479 
G01 X2.8557 Y41.5066 
G01 X2.7974 Y41.4483 
G01 X2.0354 Y40.6863 
G01 X1.9941 Y40.6149 
G01 X1.9728 Y40.5352 
G01 X1.9728 Y35.5437 
G01 X0.7654 Y34.3363 
G01 X0.7241 Y34.2649 
G01 X0.7028 Y34.1852 
G01 X0.7028 Y31.0068 
G01 X0.7241 Y30.9271 
G01 X0.7654 Y30.8557 
G01 X1.2108 Y30.4103 
G01 X1.2108 Y28.5148 
G01 X1.2321 Y28.4351 
G01 X1.2734 Y28.3637 
G01 X3.3637 Y26.2734 
G01 X3.4351 Y26.2321 
G01 X3.5148 Y26.2108 
G01 X13.2492 Y26.2108 
G01 X13.3289 Y26.2321 
G01 X13.4003 Y26.2734 
G01 X13.4586 Y26.3317 
G01 X14.4249 Y27.2980 
G01 X14.4862 Y27.2781 
G01 X14.6494 Y27.2522 
G01 X14.8146 Y27.2522 
G01 X14.9778 Y27.2781 
G01 X15.1350 Y27.3291 
G01 X15.2822 Y27.4041 
G01 X15.4159 Y27.5013 
G01 X15.5327 Y27.6181 
G01 X15.6299 Y27.7518 
G01 X15.7049 Y27.8990 
G01 X15.7559 Y28.0562 
G01 X15.7818 Y28.2194 
G01 X15.7818 Y28.3846 
G01 X15.7559 Y28.5478 
G01 X15.7049 Y28.7050 
G01 X15.6299 Y28.8522 
G01 X15.5327 Y28.9859 
G01 X15.4159 Y29.1027 
G01 X15.2822 Y29.1999 
G01 X15.1350 Y29.2749 
G01 X14.9778 Y29.3259 
G01 X14.8146 Y29.3518 
G01 X14.6494 Y29.3518 
G01 X14.4862 Y29.3259 
G01 X14.3290 Y29.2749 
G01 X14.1818 Y29.1999 
G01 X14.0481 Y29.1027 
G01 X13.9313 Y28.9859 
G01 X13.8341 Y28.8522 
G01 X13.7591 Y28.7050 
G01 X13.7081 Y28.5478 
G01 X13.6822 Y28.3846 
G01 X13.6822 Y28.2194 
G01 X13.7081 Y28.0562 
G01 X13.7591 Y27.8990 
G01 X13.8341 Y27.7518 
G01 X13.9009 Y27.6598 
G01 X13.0783 Y26.8372 
G01 X3.6857 Y26.8372 
G01 X1.8372 Y28.6857 
G01 X1.8372 Y30.5812 
G01 X1.8159 Y30.6609 
G01 X1.7746 Y30.7323 
G01 X1.3292 Y31.1777 
G01 X1.3292 Y34.0143 
G01 X2.4783 Y35.1634 
G01 X2.5366 Y35.2217 
G01 X2.5779 Y35.2931 
G01 X2.5992 Y35.3728 
G01 X2.5992 Y40.3643 
G01 X3.1777 Y40.9428 
G01 X4.2223 Y40.9428 
G01 X4.2515 Y40.8530 
G01 X4.3265 Y40.7058 
G01 X4.4237 Y40.5721 
G01 X4.5405 Y40.4553 
G01 X4.6742 Y40.3581 
G01 X4.8214 Y40.2831 
G01 X4.9786 Y40.2321 
G01 X5.1418 Y40.2062 
G01 X5.7543 Y40.2062 
G01 X5.7077 Y40.1869 
G01 X5.3120 Y39.7912 
G01 X5.2928 Y39.7912 
G01 X5.2131 Y39.7699 
G01 X5.1417 Y39.7286 
G01 X5.0834 Y39.6703 
G01 X5.0421 Y39.5989 
G01 X5.0208 Y39.5192 
G01 X5.0208 Y35.1188 
G01 X5.0421 Y35.0391 
G01 X5.0834 Y34.9677 
G01 X5.5288 Y34.5223 
G01 X5.5288 Y32.3248 
G01 X5.5501 Y32.2451 
G01 X5.5914 Y32.1737 
G01 X5.6370 Y32.1281 
G01 X5.6370 Y29.8099 
G01 X5.5914 Y29.7643 
G01 X5.5501 Y29.6929 
G01 X5.5288 Y29.6132 
G01 X5.5288 Y29.5308 
G01 X5.5501 Y29.4511 
G01 X5.5914 Y29.3797 
G01 X6.1820 Y28.7891 
G01 X6.1391 Y28.7050 
G01 X6.0880 Y28.5478 
G01 X6.0622 Y28.3846 
G01 X6.0622 Y28.2194 
G01 X6.0880 Y28.0562 
G01 X6.1391 Y27.8990 
G01 X6.2141 Y27.7518 
G01 X6.3113 Y27.6181 
G00 Z0.7000 
G00 X8.8513 Y27.6181 
G01 Z-0.1100 F254.00 
G01 X8.9681 Y27.5013 F508.00 
G01 X9.1018 Y27.4041 
G01 X9.2490 Y27.3291 
G01 X9.4062 Y27.2781 
G01 X9.5694 Y27.2522 
G01 X9.7346 Y27.2522 
G01 X9.8978 Y27.2781 
G01 X10.0550 Y27.3291 
G01 X10.2022 Y27.4041 
G01 X10.3359 Y27.5013 
G01 X10.4527 Y27.6181 
G01 X10.5499 Y27.7518 
G01 X10.6249 Y27.8990 
G01 X10.6759 Y28.0562 
G01 X10.7018 Y28.2194 
G01 X10.7018 Y28.3846 
G01 X10.6759 Y28.5478 
G01 X10.6249 Y28.7050 
G01 X10.5499 Y28.8522 
G01 X10.4527 Y28.9859 
G01 X10.3359 Y29.1027 
G01 X10.2022 Y29.1999 
G01 X10.0550 Y29.2749 
G01 X9.8978 Y29.3259 
G01 X9.7346 Y29.3518 
G01 X9.5694 Y29.3518 
G01 X9.4062 Y29.3259 
G01 X9.2490 Y29.2749 
G01 X9.1649 Y29.2320 
G01 X8.5870 Y29.8099 
G01 X8.5870 Y32.1281 
G01 X8.6326 Y32.1737 
G01 X8.6739 Y32.2451 
G01 X8.6952 Y32.3248 
G01 X8.6952 Y34.9472 
G01 X8.6739 Y35.0269 
G01 X8.6326 Y35.0983 
G01 X7.7422 Y35.9887 
G01 X7.7959 Y36.0277 
G01 X7.9127 Y36.1445 
G01 X8.0099 Y36.2782 
G01 X8.0849 Y36.4254 
G01 X8.1359 Y36.5826 
G01 X8.1618 Y36.7458 
G01 X8.1618 Y38.7906 
G01 X8.1359 Y38.9538 
G01 X8.0849 Y39.1110 
G01 X8.0099 Y39.2582 
G01 X7.9127 Y39.3919 
G01 X7.7959 Y39.5087 
G01 X7.6622 Y39.6059 
G01 X7.5150 Y39.6809 
G01 X7.3578 Y39.7319 
G01 X7.1946 Y39.7578 
G01 X7.0294 Y39.7578 
G01 X6.8662 Y39.7319 
G01 X6.7090 Y39.6809 
G01 X6.5618 Y39.6059 
G01 X6.4281 Y39.5087 
G01 X6.3113 Y39.3919 
G01 X6.2141 Y39.2582 
G01 X6.1391 Y39.1110 
G01 X6.0880 Y38.9538 
G01 X6.0622 Y38.7906 
G01 X6.0622 Y36.7458 
G01 X6.0880 Y36.5826 
G01 X6.1391 Y36.4254 
G01 X6.2141 Y36.2782 
G01 X6.3113 Y36.1445 
G01 X6.4281 Y36.0277 
G01 X6.5618 Y35.9305 
G01 X6.7090 Y35.8555 
G01 X6.8662 Y35.8045 
G01 X7.0294 Y35.7786 
G01 X7.0665 Y35.7786 
G01 X8.0688 Y34.7763 
G01 X8.0688 Y32.3248 
G01 X8.0901 Y32.2451 
G01 X8.1314 Y32.1737 
G01 X8.1770 Y32.1281 
G01 X8.1770 Y29.8099 
G01 X8.1314 Y29.7643 
G01 X8.0901 Y29.6929 
G01 X8.0688 Y29.6132 
G01 X8.0688 Y29.5308 
G01 X8.0901 Y29.4511 
G01 X8.1314 Y29.3797 
G01 X8.7220 Y28.7891 
G01 X8.6791 Y28.7050 
G01 X8.6280 Y28.5478 
G01 X8.6022 Y28.3846 
G01 X8.6022 Y28.2194 
G01 X8.6280 Y28.0562 
G01 X8.6791 Y27.8990 
G01 X8.7541 Y27.7518 
G01 X8.8513 Y27.6181 
G00 Z0.7000 
G00 X8.8513 Y30.1581 
G01 Z-0.1100 F254.00 
G01 X8.9681 Y30.0413 F508.00 
G01 X9.1018 Y29.9441 
G01 X9.2490 Y29.8691 
G01 X9.4062 Y29.8180 
G01 X9.5694 Y29.7922 
G01 X9.7346 Y29.7922 
G01 X9.8978 Y29.8180 
G01 X10.0550 Y29.8691 
G01 X10.2022 Y29.9441 
G01 X10.3359 Y30.0413 
G01 X10.4527 Y30.1581 
G01 X10.5499 Y30.2918 
G01 X10.6249 Y30.4390 
G01 X10.6759 Y30.5962 
G01 X10.7018 Y30.7594 
G01 X10.7018 Y30.9246 
G01 X10.6759 Y31.0878 
G01 X10.6249 Y31.2450 
G01 X10.5820 Y31.3291 
G01 X11.1726 Y31.9197 
G01 X11.2139 Y31.9911 
G01 X11.2352 Y32.0708 
G01 X11.2352 Y35.0303 
G01 X11.8137 Y35.6088 
G01 X18.0752 Y35.6088 
G01 X18.1549 Y35.6301 
G01 X18.2263 Y35.6714 
G01 X18.2846 Y35.7297 
G01 X20.3971 Y37.8422 
G01 X20.4302 Y37.8181 
G01 X20.5774 Y37.7431 
G01 X20.7346 Y37.6921 
G01 X20.8978 Y37.6662 
G01 X22.9426 Y37.6662 
G01 X23.1058 Y37.6921 
G01 X23.2630 Y37.7431 
G01 X23.4102 Y37.8181 
G01 X23.5439 Y37.9153 
G01 X23.6607 Y38.0321 
G01 X23.7579 Y38.1658 
G01 X23.8329 Y38.3130 
G01 X23.8839 Y38.4702 
G01 X23.9098 Y38.6334 
G01 X23.9098 Y38.7986 
G01 X23.8839 Y38.9618 
G01 X23.8329 Y39.1190 
G01 X23.7579 Y39.2662 
G01 X23.6607 Y39.3999 
G01 X23.5439 Y39.5167 
G01 X23.4102 Y39.6139 
G01 X23.2630 Y39.6889 
G01 X23.1058 Y39.7399 
G01 X22.9426 Y39.7658 
G01 X20.8978 Y39.7658 
G01 X20.7346 Y39.7399 
G01 X20.5774 Y39.6889 
G01 X20.4302 Y39.6139 
G01 X20.2965 Y39.5167 
G01 X20.1797 Y39.3999 
G01 X20.0825 Y39.2662 
G01 X20.0075 Y39.1190 
G01 X19.9565 Y38.9618 
G01 X19.9306 Y38.7986 
G01 X19.9306 Y38.6334 
G01 X19.9565 Y38.4702 
G01 X20.0013 Y38.3322 
G01 X17.9043 Y36.2352 
G01 X11.6428 Y36.2352 
G01 X11.5631 Y36.2139 
G01 X11.4917 Y36.1726 
G01 X10.6714 Y35.3523 
G01 X10.6301 Y35.2809 
G01 X10.6088 Y35.2012 
G01 X10.6088 Y35.1188 
G01 X10.6088 Y32.2417 
G01 X10.1391 Y31.7720 
G01 X10.0550 Y31.8149 
G01 X9.8978 Y31.8659 
G01 X9.7346 Y31.8918 
G01 X9.5694 Y31.8918 
G01 X9.4062 Y31.8659 
G01 X9.2490 Y31.8149 
G01 X9.1018 Y31.7399 
G01 X8.9681 Y31.6427 
G01 X8.8513 Y31.5259 
G01 X8.7541 Y31.3922 
G01 X8.6791 Y31.2450 
G01 X8.6280 Y31.0878 
G01 X8.6022 Y30.9246 
G01 X8.6022 Y30.7594 
G01 X8.6280 Y30.5962 
G01 X8.6791 Y30.4390 
G01 X8.7541 Y30.2918 
G01 X8.8513 Y30.1581 
G00 Z0.7000 
G00 X7.9127 Y30.1581 
G01 Z-0.1100 F254.00 
G01 X8.0099 Y30.2918 F508.00 
G01 X8.0849 Y30.4390 
G01 X8.1359 Y30.5962 
G01 X8.1618 Y30.7594 
G01 X8.1618 Y30.9246 
G01 X8.1359 Y31.0878 
G01 X8.0849 Y31.2450 
G01 X8.0099 Y31.3922 
G01 X7.9127 Y31.5259 
G01 X7.7959 Y31.6427 
G01 X7.6622 Y31.7399 
G01 X7.5150 Y31.8149 
G01 X7.3578 Y31.8659 
G01 X7.1946 Y31.8918 
G01 X7.0294 Y31.8918 
G01 X6.8662 Y31.8659 
G01 X6.7090 Y31.8149 
G01 X6.5618 Y31.7399 
G01 X6.4281 Y31.6427 
G01 X6.3113 Y31.5259 
G01 X6.2141 Y31.3922 
G01 X6.1391 Y31.2450 
G01 X6.0880 Y31.0878 
G01 X6.0622 Y30.9246 
G01 X6.0622 Y30.7594 
G01 X6.0880 Y30.5962 
G01 X6.1391 Y30.4390 
G01 X6.2141 Y30.2918 
G01 X6.3113 Y30.1581 
G01 X6.4281 Y30.0413 
G01 X6.5618 Y29.9441 
G01 X6.7090 Y29.8691 
G01 X6.8662 Y29.8180 
G01 X7.0294 Y29.7922 
G01 X7.1946 Y29.7922 
G01 X7.3578 Y29.8180 
G01 X7.5150 Y29.8691 
G01 X7.6622 Y29.9441 
G01 X7.7959 Y30.0413 
G01 X7.9127 Y30.1581 
G00 Z0.7000 
G00 X5.3727 Y30.1581 
G01 Z-0.1100 F254.00 
G01 X5.4699 Y30.2918 F508.00 
G01 X5.5449 Y30.4390 
G01 X5.5959 Y30.5962 
G01 X5.6218 Y30.7594 
G01 X5.6218 Y30.9246 
G01 X5.5959 Y31.0878 
G01 X5.5449 Y31.2450 
G01 X5.4699 Y31.3922 
G01 X5.3727 Y31.5259 
G01 X5.2559 Y31.6427 
G01 X5.1222 Y31.7399 
G01 X4.9750 Y31.8149 
G01 X4.8178 Y31.8659 
G01 X4.6546 Y31.8918 
G01 X4.4894 Y31.8918 
G01 X4.3262 Y31.8659 
G01 X4.1690 Y31.8149 
G01 X4.0218 Y31.7399 
G01 X3.8881 Y31.6427 
G01 X3.7713 Y31.5259 
G01 X3.6741 Y31.3922 
G01 X3.5991 Y31.2450 
G01 X3.5480 Y31.0878 
G01 X3.5222 Y30.9246 
G01 X3.5222 Y30.7594 
G01 X3.5480 Y30.5962 
G01 X3.5991 Y30.4390 
G01 X3.6741 Y30.2918 
G01 X3.7713 Y30.1581 
G01 X3.8881 Y30.0413 
G01 X4.0218 Y29.9441 
G01 X4.1690 Y29.8691 
G01 X4.3262 Y29.8180 
G01 X4.4894 Y29.7922 
G01 X4.6546 Y29.7922 
G01 X4.8178 Y29.8180 
G01 X4.9750 Y29.8691 
G01 X5.1222 Y29.9441 
G01 X5.2559 Y30.0413 
G01 X5.3727 Y30.1581 
G00 Z0.7000 
G00 X0.8212 Y30.1604 
G01 Z-0.1100 F254.00 
G01 X0.7999 Y30.2400 F508.00 
G01 X0.7586 Y30.3115 
G01 X0.7003 Y30.3698 
G01 X0.4202 Y30.6499 
G01 X0.3132 Y30.9082 
G01 X0.3132 Y34.2838 
G01 X0.4202 Y34.5421 
G01 X0.9618 Y35.0837 
G01 X1.0031 Y35.1551 
G01 X1.0244 Y35.2348 
G01 X1.0244 Y36.2824 
G01 X1.0031 Y36.3621 
G01 X0.9618 Y36.4335 
G01 X0.9035 Y36.4918 
G01 X0.8321 Y36.5331 
G01 X0.7524 Y36.5544 
G01 X-0.0134 Y36.5544 
G01 X-0.1970 Y36.6305 
G01 X-0.3375 Y36.7710 
G01 X-0.4136 Y36.9546 
G01 X-0.4136 Y38.9534 
G01 X-0.3375 Y39.1370 
G01 X-0.1970 Y39.2775 
G01 X-0.0134 Y39.3536 
G01 X0.1936 Y39.3536 
G01 X0.2733 Y39.3749 
G01 X0.3447 Y39.4162 
G01 X0.4030 Y39.4745 
G01 X0.4443 Y39.5459 
G01 X0.4656 Y39.6256 
G01 X0.4656 Y43.7020 
G01 X0.5881 Y43.9977 
G01 X0.7664 Y44.1760 
G01 X0.7798 Y44.1857 
G01 X0.7954 Y44.2050 
G01 X0.8129 Y44.2225 
G01 X0.8212 Y44.2369 
G01 X2.8056 Y46.6875 
G01 X2.8315 Y46.7195 
G01 X2.8548 Y46.7483 
G01 X2.8591 Y46.7554 
G01 X2.8733 Y46.7897 
G01 X2.9284 Y46.8459 
G01 X2.9418 Y46.8557 
G01 X2.9574 Y46.8750 
G01 X2.9749 Y46.8925 
G01 X2.9832 Y46.9069 
G01 X3.0314 Y46.9664 
G01 X3.0660 Y46.9853 
G01 X3.0726 Y46.9902 
G01 X3.0988 Y47.0164 
G01 X3.1713 Y47.0473 
G01 X3.1874 Y47.0512 
G01 X3.2092 Y47.0630 
G01 X3.2321 Y47.0725 
G01 X3.2453 Y47.0826 
G01 X3.3126 Y47.1192 
G01 X3.3518 Y47.1234 
G01 X3.3598 Y47.1254 
G01 X3.3941 Y47.1396 
G01 X3.4728 Y47.1404 
G01 X3.4891 Y47.1378 
G01 X3.5138 Y47.1404 
G01 X3.5386 Y47.1404 
G01 X3.5547 Y47.1447 
G01 X3.6309 Y47.1527 
G01 X3.6686 Y47.1416 
G01 X3.6768 Y47.1404 
G01 X3.7139 Y47.1404 
G01 X3.7511 Y47.1394 
G01 X3.9047 Y47.1404 
G01 X3.9843 Y47.1617 
G01 X4.0558 Y47.2030 
G01 X4.4090 Y47.5563 
G01 X4.9381 Y47.7754 
G01 X7.3903 Y47.7754 
G01 X7.9193 Y47.5563 
G01 X8.1389 Y47.3367 
G01 X8.2103 Y47.2955 
G01 X8.2900 Y47.2741 
G01 X8.3724 Y47.2741 
G01 X8.4521 Y47.2955 
G01 X8.4777 Y47.3103 
G01 X8.5235 Y47.3367 
G01 X8.5818 Y47.3950 
G01 X8.6231 Y47.4665 
G01 X8.6444 Y47.5461 
G01 X8.6444 Y47.6110 
G01 X8.8365 Y48.0746 
G01 X9.1914 Y48.4295 
G01 X9.6550 Y48.6216 
G01 X10.1570 Y48.6216 
G01 X10.6206 Y48.4295 
G01 X10.9254 Y48.1248 
G01 X10.9837 Y48.0665 
G01 X11.0284 Y48.0407 
G01 X11.0551 Y48.0252 
G01 X11.1348 Y48.0039 
G01 X11.2172 Y48.0039 
G01 X11.2969 Y48.0252 
G01 X11.3683 Y48.0665 
G01 X11.7314 Y48.4295 
G01 X12.1950 Y48.6216 
G01 X12.6969 Y48.6216 
G01 X13.1606 Y48.4295 
G01 X13.4654 Y48.1248 
G01 X13.5237 Y48.0665 
G01 X13.5684 Y48.0407 
G01 X13.5951 Y48.0252 
G01 X13.6748 Y48.0039 
G01 X13.7572 Y48.0039 
G01 X13.8369 Y48.0252 
G01 X13.9083 Y48.0665 
G01 X14.2714 Y48.4295 
G01 X14.7350 Y48.6216 
G01 X15.2370 Y48.6216 
G01 X15.7006 Y48.4295 
G01 X16.0054 Y48.1248 
G01 X16.0637 Y48.0665 
G01 X16.1084 Y48.0407 
G01 X16.1351 Y48.0252 
G01 X16.2148 Y48.0039 
G01 X16.2972 Y48.0039 
G01 X16.3769 Y48.0252 
G01 X16.4483 Y48.0665 
G01 X16.8114 Y48.4295 
G01 X17.2750 Y48.6216 
G01 X17.7769 Y48.6216 
G01 X18.2406 Y48.4295 
G01 X18.5955 Y48.0746 
G01 X18.7876 Y47.6110 
G01 X18.7876 Y47.1090 
G01 X18.5955 Y46.6454 
G01 X18.2406 Y46.2905 
G01 X17.7769 Y46.0984 
G01 X17.3468 Y46.0984 
G01 X17.2671 Y46.0771 
G01 X17.1957 Y46.0358 
G01 X17.1374 Y45.9775 
G01 X15.0477 Y43.8878 
G01 X14.9894 Y43.8295 
G01 X14.9481 Y43.7580 
G01 X14.9268 Y43.6784 
G01 X14.9268 Y41.1162 
G01 X14.8198 Y40.8579 
G01 X14.2194 Y40.2575 
G01 X14.1782 Y40.1861 
G01 X14.1568 Y40.1064 
G01 X14.1568 Y40.0240 
G01 X14.1782 Y39.9443 
G01 X14.1929 Y39.9187 
G01 X14.2194 Y39.8729 
G01 X14.2450 Y39.8473 
G01 X14.2450 Y39.8110 
G01 X14.2185 Y39.7651 
G01 X14.2058 Y39.7180 
G01 X14.0831 Y39.7180 
G01 X14.0427 Y39.7013 
G01 X14.0117 Y39.6703 
G01 X13.9950 Y39.6299 
G01 X13.9950 Y38.4861 
G01 X14.0117 Y38.4457 
G01 X14.0427 Y38.4147 
G01 X14.0831 Y38.3980 
G01 X15.1269 Y38.3980 
G01 X15.1673 Y38.4147 
G01 X15.1982 Y38.4457 
G01 X15.2150 Y38.4861 
G01 X15.2150 Y39.6284 
G01 X15.2428 Y39.6562 
G01 X15.2491 Y39.6410 
G01 X15.2617 Y39.6246 
G01 X15.2720 Y39.6067 
G01 X15.2867 Y39.5920 
G01 X15.2993 Y39.5756 
G01 X15.3157 Y39.5630 
G01 X15.3303 Y39.5484 
G01 X15.3483 Y39.5380 
G01 X15.3647 Y39.5254 
G01 X15.3838 Y39.5175 
G01 X15.4018 Y39.5071 
G01 X15.4218 Y39.5018 
G01 X15.4409 Y39.4939 
G01 X15.4614 Y39.4912 
G01 X15.4814 Y39.4858 
G01 X15.5021 Y39.4858 
G01 X15.5227 Y39.4831 
G01 X15.5432 Y39.4858 
G01 X15.5639 Y39.4858 
G01 X15.5839 Y39.4912 
G01 X15.6044 Y39.4939 
G01 X15.6235 Y39.5018 
G01 X15.6435 Y39.5071 
G01 X15.6615 Y39.5175 
G01 X15.6806 Y39.5254 
G01 X15.6970 Y39.5380 
G01 X15.7150 Y39.5484 
G01 X15.7296 Y39.5630 
G01 X15.7460 Y39.5756 
G01 X15.7586 Y39.5920 
G01 X15.7733 Y39.6067 
G01 X15.7836 Y39.6246 
G01 X15.7962 Y39.6411 
G01 X15.8041 Y39.6602 
G01 X15.8145 Y39.6781 
G01 X15.8199 Y39.6981 
G01 X15.8633 Y39.8030 
G01 X16.0460 Y39.9857 
G01 X16.2848 Y40.0846 
G01 X17.2432 Y40.0846 
G01 X17.4915 Y39.9818 
G01 X17.4994 Y39.9772 
G01 X17.5497 Y39.9482 
G01 X17.5864 Y39.9383 
G01 X17.6293 Y39.9268 
G01 X17.6703 Y39.9268 
G01 X17.7118 Y39.9268 
G01 X17.9084 Y39.9268 
G01 X17.9880 Y39.9481 
G01 X18.0595 Y39.9894 
G01 X18.1178 Y40.0477 
G01 X19.4784 Y41.4083 
G01 X19.4980 Y41.4423 
G01 X19.5035 Y41.4517 
G01 X19.5197 Y41.4797 
G01 X19.5280 Y41.5110 
G01 X19.7601 Y42.0714 
G01 X20.1605 Y42.4717 
G01 X20.1769 Y42.4812 
G01 X20.1960 Y42.4891 
G01 X20.2125 Y42.5017 
G01 X20.2304 Y42.5121 
G01 X20.2450 Y42.5267 
G01 X20.2614 Y42.5393 
G01 X20.2741 Y42.5557 
G01 X20.2887 Y42.5704 
G01 X20.2990 Y42.5883 
G01 X20.3116 Y42.6047 
G01 X20.3196 Y42.6238 
G01 X20.3299 Y42.6418 
G01 X20.3353 Y42.6618 
G01 X20.3432 Y42.6809 
G01 X20.3459 Y42.7014 
G01 X20.3513 Y42.7214 
G01 X20.3513 Y42.7421 
G01 X20.3540 Y42.7627 
G01 X20.3513 Y42.7832 
G01 X20.3513 Y42.8039 
G01 X20.3459 Y42.8239 
G01 X20.3432 Y42.8444 
G01 X20.3353 Y42.8635 
G01 X20.3299 Y42.8836 
G01 X20.3196 Y42.9015 
G01 X20.3117 Y42.9206 
G01 X20.2990 Y42.9370 
G01 X20.2887 Y42.9550 
G01 X20.2741 Y42.9696 
G01 X20.2615 Y42.9860 
G01 X20.2450 Y42.9987 
G01 X20.1537 Y43.0899 
G01 X20.0534 Y43.2280 
G01 X19.9760 Y43.3800 
G01 X20.0135 Y43.3812 
G01 X20.0825 Y43.2458 
G01 X20.1797 Y43.1121 
G01 X20.2965 Y42.9953 
G01 X20.4302 Y42.8981 
G01 X20.5774 Y42.8231 
G01 X20.7346 Y42.7721 
G01 X20.8978 Y42.7462 
G01 X22.9426 Y42.7462 
G01 X23.1058 Y42.7721 
G01 X23.2630 Y42.8231 
G01 X23.4102 Y42.8981 
G01 X23.5439 Y42.9953 
G01 X23.6607 Y43.1121 
G01 X23.7579 Y43.2458 
G01 X23.8269 Y43.3812 
G01 X23.8648 Y43.3812 
G01 X23.7869 Y43.2280 
G01 X23.6867 Y43.0899 
G01 X23.5954 Y42.9987 
G01 X23.5789 Y42.9860 
G01 X23.5663 Y42.9696 
G01 X23.5517 Y42.9550 
G01 X23.5414 Y42.9370 
G01 X23.5287 Y42.9206 
G01 X23.5208 Y42.9015 
G01 X23.5105 Y42.8836 
G01 X23.5051 Y42.8635 
G01 X23.4972 Y42.8444 
G01 X23.4945 Y42.8239 
G01 X23.4891 Y42.8039 
G01 X23.4891 Y42.7832 
G01 X23.4864 Y42.7627 
G01 X23.4891 Y42.7421 
G01 X23.4891 Y42.7214 
G01 X23.4945 Y42.7014 
G01 X23.4972 Y42.6809 
G01 X23.5051 Y42.6618 
G01 X23.5105 Y42.6418 
G01 X23.5208 Y42.6238 
G01 X23.5288 Y42.6047 
G01 X23.5414 Y42.5883 
G01 X23.5517 Y42.5704 
G01 X23.5663 Y42.5557 
G01 X23.5790 Y42.5393 
G01 X23.5954 Y42.5267 
G01 X23.6100 Y42.5121 
G01 X23.6279 Y42.5017 
G01 X23.6444 Y42.4891 
G01 X23.6635 Y42.4812 
G01 X23.6799 Y42.4717 
G01 X24.0803 Y42.0714 
G01 X24.2994 Y41.5423 
G01 X24.2994 Y40.9697 
G01 X24.0803 Y40.4406 
G01 X23.8762 Y40.2366 
G01 X23.8179 Y40.1783 
G01 X23.7921 Y40.1336 
G01 X23.7767 Y40.1069 
G01 X23.7553 Y40.0272 
G01 X23.7553 Y39.9448 
G01 X23.7767 Y39.8651 
G01 X23.8179 Y39.7937 
G01 X24.0803 Y39.5313 
G01 X24.1791 Y39.2929 
G01 X24.1844 Y39.2728 
G01 X24.1948 Y39.2549 
G01 X24.2027 Y39.2358 
G01 X24.2153 Y39.2194 
G01 X24.2256 Y39.2014 
G01 X24.2403 Y39.1868 
G01 X24.2529 Y39.1704 
G01 X24.2693 Y39.1578 
G01 X24.2840 Y39.1431 
G01 X24.3019 Y39.1328 
G01 X24.3183 Y39.1202 
G01 X24.3374 Y39.1122 
G01 X24.3554 Y39.1019 
G01 X24.3754 Y39.0965 
G01 X24.3945 Y39.0886 
G01 X24.4150 Y39.0859 
G01 X24.4350 Y39.0805 
G01 X24.4557 Y39.0805 
G01 X24.4763 Y39.0778 
G01 X24.4968 Y39.0805 
G01 X24.5175 Y39.0805 
G01 X24.5375 Y39.0859 
G01 X24.5580 Y39.0886 
G01 X24.5771 Y39.0965 
G01 X24.5972 Y39.1019 
G01 X24.6151 Y39.1122 
G01 X24.6342 Y39.1202 
G01 X24.6506 Y39.1328 
G01 X24.6686 Y39.1431 
G01 X24.6832 Y39.1578 
G01 X24.6996 Y39.1704 
G01 X24.7122 Y39.1868 
G01 X24.8030 Y39.2775 
G01 X24.9866 Y39.3536 
G01 X25.1936 Y39.3536 
G01 X25.2733 Y39.3749 
G01 X25.3447 Y39.4162 
G01 X25.4030 Y39.4745 
G01 X25.4443 Y39.5459 
G01 X25.4656 Y39.6256 
G01 X25.4656 Y43.7020 
G01 X25.5881 Y43.9977 
G01 X25.7664 Y44.1760 
G01 X25.7798 Y44.1857 
G01 X25.7954 Y44.2050 
G01 X25.8129 Y44.2225 
G01 X25.8212 Y44.2369 
G01 X27.8056 Y46.6875 
G01 X27.8315 Y46.7195 
G01 X27.8548 Y46.7483 
G01 X27.8591 Y46.7554 
G01 X27.8732 Y46.7897 
G01 X27.9283 Y46.8459 
G01 X27.9418 Y46.8557 
G01 X27.9574 Y46.8750 
G01 X27.9749 Y46.8925 
G01 X27.9832 Y46.9069 
G01 X28.0314 Y46.9664 
G01 X28.0660 Y46.9853 
G01 X28.0726 Y46.9902 
G01 X28.0988 Y47.0164 
G01 X28.1713 Y47.0473 
G01 X28.1874 Y47.0512 
G01 X28.2092 Y47.0630 
G01 X28.2321 Y47.0725 
G01 X28.2453 Y47.0826 
G01 X28.3126 Y47.1192 
G01 X28.3517 Y47.1234 
G01 X28.3598 Y47.1254 
G01 X28.3941 Y47.1396 
G01 X28.4728 Y47.1404 
G01 X28.4891 Y47.1378 
G01 X28.5138 Y47.1404 
G01 X28.5386 Y47.1404 
G01 X28.5547 Y47.1447 
G01 X28.6309 Y47.1527 
G01 X28.6686 Y47.1416 
G01 X28.6768 Y47.1404 
G01 X28.7139 Y47.1404 
G01 X28.7510 Y47.1394 
G01 X28.9047 Y47.1404 
G01 X28.9843 Y47.1617 
G01 X29.0558 Y47.2030 
G01 X29.1141 Y47.2613 
G01 X29.4090 Y47.5563 
G01 X29.9381 Y47.7754 
G01 X32.3903 Y47.7754 
G01 X32.9193 Y47.5563 
G01 X33.1389 Y47.3367 
G01 X33.2103 Y47.2955 
G01 X33.2900 Y47.2741 
G01 X33.3724 Y47.2741 
G01 X33.4521 Y47.2955 
G01 X33.4777 Y47.3103 
G01 X33.5235 Y47.3367 
G01 X33.5818 Y47.3950 
G01 X33.6231 Y47.4665 
G01 X33.6444 Y47.5461 
G01 X33.6444 Y47.6110 
G01 X33.8365 Y48.0746 
G01 X34.1914 Y48.4295 
G01 X34.6550 Y48.6216 
G01 X35.1570 Y48.6216 
G01 X35.6206 Y48.4295 
G01 X35.9254 Y48.1248 
G01 X35.9837 Y48.0665 
G01 X36.0284 Y48.0407 
G01 X36.0551 Y48.0252 
G01 X36.1348 Y48.0039 
G01 X36.2172 Y48.0039 
G01 X36.2969 Y48.0252 
G01 X36.3683 Y48.0665 
G01 X36.7314 Y48.4295 
G01 X37.1950 Y48.6216 
G01 X37.6970 Y48.6216 
G01 X38.1606 Y48.4295 
G01 X38.4654 Y48.1248 
G01 X38.5237 Y48.0665 
G01 X38.5684 Y48.0407 
G01 X38.5951 Y48.0252 
G01 X38.6748 Y48.0039 
G01 X38.7572 Y48.0039 
G01 X38.8369 Y48.0252 
G01 X38.9083 Y48.0665 
G01 X39.2714 Y48.4295 
G01 X39.7350 Y48.6216 
G01 X40.2370 Y48.6216 
G01 X40.7006 Y48.4295 
G01 X41.0054 Y48.1248 
G01 X41.0637 Y48.0665 
G01 X41.1084 Y48.0407 
G01 X41.1351 Y48.0252 
G01 X41.2148 Y48.0039 
G01 X41.2972 Y48.0039 
G01 X41.3769 Y48.0252 
G01 X41.4483 Y48.0665 
G01 X41.8114 Y48.4295 
G01 X42.2750 Y48.6216 
G01 X42.7769 Y48.6216 
G01 X43.2406 Y48.4295 
G01 X43.5955 Y48.0746 
G01 X43.7876 Y47.6110 
G01 X43.7876 Y47.1090 
G01 X43.5955 Y46.6454 
G01 X43.2406 Y46.2905 
G01 X42.7769 Y46.0984 
G01 X42.3468 Y46.0984 
G01 X42.2671 Y46.0771 
G01 X42.1957 Y46.0358 
G01 X42.1374 Y45.9775 
G01 X39.9894 Y43.8295 
G01 X39.9481 Y43.7580 
G01 X39.9268 Y43.6784 
G01 X39.9268 Y41.1162 
G01 X39.8198 Y40.8579 
G01 X39.2194 Y40.2575 
G01 X39.1782 Y40.1861 
G01 X39.1568 Y40.1064 
G01 X39.1568 Y40.0240 
G01 X39.1782 Y39.9443 
G01 X39.1929 Y39.9187 
G01 X39.2194 Y39.8729 
G01 X39.2450 Y39.8473 
G01 X39.2450 Y39.8110 
G01 X39.2185 Y39.7651 
G01 X39.2058 Y39.7180 
G01 X39.0831 Y39.7180 
G01 X39.0427 Y39.7013 
G01 X39.0117 Y39.6703 
G01 X38.9950 Y39.6299 
G01 X38.9950 Y38.4861 
G01 X39.0117 Y38.4457 
G01 X39.0427 Y38.4147 
G01 X39.0831 Y38.3980 
G01 X40.1269 Y38.3980 
G01 X40.1673 Y38.4147 
G01 X40.1983 Y38.4457 
G01 X40.2150 Y38.4861 
G01 X40.2150 Y39.6284 
G01 X40.2428 Y39.6562 
G01 X40.2491 Y39.6410 
G01 X40.2617 Y39.6246 
G01 X40.2720 Y39.6067 
G01 X40.2867 Y39.5920 
G01 X40.2993 Y39.5756 
G01 X40.3157 Y39.5630 
G01 X40.3303 Y39.5484 
G01 X40.3483 Y39.5380 
G01 X40.3647 Y39.5254 
G01 X40.3838 Y39.5175 
G01 X40.4018 Y39.5071 
G01 X40.4218 Y39.5018 
G01 X40.4409 Y39.4939 
G01 X40.4614 Y39.4912 
G01 X40.4814 Y39.4858 
G01 X40.5021 Y39.4858 
G01 X40.5227 Y39.4831 
G01 X40.5432 Y39.4858 
G01 X40.5639 Y39.4858 
G01 X40.5839 Y39.4912 
G01 X40.6044 Y39.4939 
G01 X40.6235 Y39.5018 
G01 X40.6435 Y39.5071 
G01 X40.6615 Y39.5175 
G01 X40.6806 Y39.5254 
G01 X40.6970 Y39.5380 
G01 X40.7150 Y39.5484 
G01 X40.7296 Y39.5630 
G01 X40.7460 Y39.5756 
G01 X40.7586 Y39.5920 
G01 X40.7733 Y39.6067 
G01 X40.7836 Y39.6246 
G01 X40.7962 Y39.6411 
G01 X40.8041 Y39.6602 
G01 X40.8145 Y39.6781 
G01 X40.8199 Y39.6981 
G01 X40.8633 Y39.8030 
G01 X41.0460 Y39.9857 
G01 X41.2848 Y40.0846 
G01 X42.2432 Y40.0846 
G01 X42.4915 Y39.9818 
G01 X42.4994 Y39.9772 
G01 X42.5497 Y39.9482 
G01 X42.5864 Y39.9383 
G01 X42.6293 Y39.9268 
G01 X42.6703 Y39.9268 
G01 X42.7118 Y39.9268 
G01 X42.9084 Y39.9268 
G01 X42.9880 Y39.9481 
G01 X43.0595 Y39.9894 
G01 X43.1178 Y40.0477 
G01 X44.4784 Y41.4083 
G01 X44.4980 Y41.4423 
G01 X44.5035 Y41.4517 
G01 X44.5197 Y41.4797 
G01 X44.5280 Y41.5110 
G01 X44.7601 Y42.0714 
G01 X45.1605 Y42.4717 
G01 X45.1769 Y42.4812 
G01 X45.1960 Y42.4891 
G01 X45.2124 Y42.5017 
G01 X45.2304 Y42.5121 
G01 X45.2450 Y42.5267 
G01 X45.2614 Y42.5393 
G01 X45.2741 Y42.5557 
G01 X45.2887 Y42.5704 
G01 X45.2990 Y42.5883 
G01 X45.3116 Y42.6047 
G01 X45.3196 Y42.6238 
G01 X45.3299 Y42.6418 
G01 X45.3353 Y42.6618 
G01 X45.3432 Y42.6809 
G01 X45.3459 Y42.7014 
G01 X45.3513 Y42.7214 
G01 X45.3513 Y42.7421 
G01 X45.3540 Y42.7627 
G01 X45.3513 Y42.7832 
G01 X45.3513 Y42.8039 
G01 X45.3459 Y42.8239 
G01 X45.3432 Y42.8444 
G01 X45.3353 Y42.8635 
G01 X45.3299 Y42.8836 
G01 X45.3196 Y42.9015 
G01 X45.3117 Y42.9206 
G01 X45.2990 Y42.9370 
G01 X45.2887 Y42.9550 
G01 X45.2741 Y42.9696 
G01 X45.2615 Y42.9860 
G01 X45.2450 Y42.9987 
G01 X45.1537 Y43.0899 
G01 X45.0534 Y43.2280 
G01 X44.9760 Y43.3800 
G01 X45.0135 Y43.3812 
G01 X45.0825 Y43.2458 
G01 X45.1797 Y43.1121 
G01 X45.2965 Y42.9953 
G01 X45.4302 Y42.8981 
G01 X45.5774 Y42.8231 
G01 X45.7346 Y42.7721 
G01 X45.8978 Y42.7462 
G01 X47.9426 Y42.7462 
G01 X48.1058 Y42.7721 
G01 X48.2630 Y42.8231 
G01 X48.4102 Y42.8981 
G01 X48.5439 Y42.9953 
G01 X48.6607 Y43.1121 
G01 X48.7579 Y43.2458 
G01 X48.8269 Y43.3812 
G01 X48.8648 Y43.3812 
G01 X48.7869 Y43.2280 
G01 X48.6867 Y43.0899 
G01 X48.5954 Y42.9987 
G01 X48.5789 Y42.9860 
G01 X48.5663 Y42.9696 
G01 X48.5517 Y42.9550 
G01 X48.5414 Y42.9370 
G01 X48.5287 Y42.9206 
G01 X48.5208 Y42.9015 
G01 X48.5105 Y42.8836 
G01 X48.5051 Y42.8635 
G01 X48.4972 Y42.8444 
G01 X48.4945 Y42.8239 
G01 X48.4891 Y42.8039 
G01 X48.4891 Y42.7832 
G01 X48.4864 Y42.7627 
G01 X48.4891 Y42.7421 
G01 X48.4891 Y42.7214 
G01 X48.4945 Y42.7014 
G01 X48.4972 Y42.6809 
G01 X48.5051 Y42.6618 
G01 X48.5105 Y42.6418 
G01 X48.5208 Y42.6238 
G01 X48.5288 Y42.6047 
G01 X48.5414 Y42.5883 
G01 X48.5517 Y42.5704 
G01 X48.5663 Y42.5557 
G01 X48.5790 Y42.5393 
G01 X48.5954 Y42.5267 
G01 X48.6100 Y42.5121 
G01 X48.6279 Y42.5017 
G01 X48.6444 Y42.4891 
G01 X48.6635 Y42.4812 
G01 X48.6799 Y42.4717 
G01 X49.0803 Y42.0714 
G01 X49.2994 Y41.5423 
G01 X49.2994 Y40.9697 
G01 X49.0803 Y40.4406 
G01 X48.8762 Y40.2366 
G01 X48.8179 Y40.1783 
G01 X48.7921 Y40.1336 
G01 X48.7767 Y40.1069 
G01 X48.7553 Y40.0272 
G01 X48.7553 Y39.9448 
G01 X48.7767 Y39.8651 
G01 X48.8179 Y39.7937 
G01 X49.0803 Y39.5313 
G01 X49.2994 Y39.0023 
G01 X49.2994 Y38.4297 
G01 X49.0803 Y37.9006 
G01 X48.8179 Y37.6383 
G01 X48.7767 Y37.5669 
G01 X48.7553 Y37.4872 
G01 X48.7553 Y37.4048 
G01 X48.7767 Y37.3251 
G01 X48.7915 Y37.2995 
G01 X48.8179 Y37.2537 
G01 X48.8762 Y37.1954 
G01 X49.0803 Y36.9914 
G01 X49.2994 Y36.4623 
G01 X49.2994 Y35.8897 
G01 X49.0803 Y35.3606 
G01 X48.8179 Y35.0983 
G01 X48.7767 Y35.0269 
G01 X48.7553 Y34.9472 
G01 X48.7553 Y34.8648 
G01 X48.7767 Y34.7851 
G01 X48.7915 Y34.7595 
G01 X48.8179 Y34.7137 
G01 X48.8762 Y34.6554 
G01 X49.0803 Y34.4514 
G01 X49.2994 Y33.9223 
G01 X49.2994 Y33.3497 
G01 X49.0803 Y32.8206 
G01 X48.8179 Y32.5583 
G01 X48.7767 Y32.4869 
G01 X48.7553 Y32.4072 
G01 X48.7553 Y32.3248 
G01 X48.7767 Y32.2451 
G01 X48.7914 Y32.2195 
G01 X48.8179 Y32.1737 
G01 X48.8762 Y32.1154 
G01 X49.0803 Y31.9114 
G01 X49.2994 Y31.3823 
G01 X49.2994 Y30.8097 
G01 X49.0803 Y30.2806 
G01 X48.6799 Y29.8803 
G01 X48.6635 Y29.8708 
G01 X48.6444 Y29.8629 
G01 X48.6279 Y29.8503 
G01 X48.6100 Y29.8399 
G01 X48.5954 Y29.8253 
G01 X48.5789 Y29.8127 
G01 X48.5663 Y29.7963 
G01 X48.5517 Y29.7816 
G01 X48.5414 Y29.7637 
G01 X48.5287 Y29.7473 
G01 X48.5208 Y29.7281 
G01 X48.5105 Y29.7102 
G01 X48.5051 Y29.6902 
G01 X48.4972 Y29.6711 
G01 X48.4945 Y29.6505 
G01 X48.4891 Y29.6305 
G01 X48.4891 Y29.6099 
G01 X48.4864 Y29.5893 
G01 X48.4891 Y29.5688 
G01 X48.4891 Y29.5481 
G01 X48.4945 Y29.5281 
G01 X48.4972 Y29.5076 
G01 X48.5051 Y29.4884 
G01 X48.5105 Y29.4684 
G01 X48.5208 Y29.4505 
G01 X48.5287 Y29.4314 
G01 X48.5414 Y29.4149 
G01 X48.5517 Y29.3970 
G01 X48.5663 Y29.3824 
G01 X48.5789 Y29.3659 
G01 X48.5954 Y29.3533 
G01 X48.6867 Y29.2620 
G01 X48.7869 Y29.1240 
G01 X48.8644 Y28.9720 
G01 X48.8269 Y28.9708 
G01 X48.7579 Y29.1062 
G01 X48.6607 Y29.2399 
G01 X48.5439 Y29.3567 
G01 X48.4102 Y29.4539 
G01 X48.2630 Y29.5289 
G01 X48.1058 Y29.5799 
G01 X47.9426 Y29.6058 
G01 X45.8978 Y29.6058 
G01 X45.7346 Y29.5799 
G01 X45.5774 Y29.5289 
G01 X45.4302 Y29.4539 
G01 X45.2965 Y29.3567 
G01 X45.1797 Y29.2399 
G01 X45.0825 Y29.1062 
G01 X45.0075 Y28.9590 
G01 X44.9564 Y28.8018 
G01 X44.9306 Y28.6386 
G01 X44.9306 Y28.4734 
G01 X44.9564 Y28.3102 
G01 X45.0075 Y28.1530 
G01 X45.0825 Y28.0058 
G01 X45.1797 Y27.8721 
G01 X45.2965 Y27.7553 
G01 X45.4302 Y27.6581 
G01 X45.5774 Y27.5831 
G01 X45.7346 Y27.5321 
G01 X45.8978 Y27.5062 
G01 X47.4706 Y27.5062 
G01 X47.4706 Y27.4722 
G01 X46.0364 Y27.4722 
G01 X45.9539 Y27.4722 
G01 X45.8742 Y27.4509 
G01 X45.8028 Y27.4096 
G01 X45.7454 Y27.3522 
G01 X45.7276 Y27.3220 
G01 X45.7033 Y27.2799 
G01 X45.6819 Y27.2002 
G01 X45.6819 Y27.1178 
G01 X45.7033 Y27.0381 
G01 X45.7445 Y26.9667 
G01 X45.7894 Y26.9218 
G01 X45.8028 Y26.9084 
G01 X45.8799 Y26.8313 
G01 X46.0990 Y26.3023 
G01 X46.0990 Y25.7297 
G01 X45.8799 Y25.2006 
